;FLAVOR:Marlin
;TIME:1281
;Filament used: 0.814873m
;Layer height: 0.2
;MINX:71.357
;MINY:41.4
;MINZ:0.2
;MAXX:128.671
;MAXY:98.6
;MAXZ:2.8
;TARGET_MACHINE.NAME:Snapmaker A350
;Generated with Cura_SteamEngine 5.9.1
M82 ;absolute extrusion mode
M104 S235 ;Set Hotend Temperature
;M140 S60 ;Set Bed Temperature
G28 ;home
G90 ;absolute positioning
G1 X50 Y50 F2000   ; Move to the starting point (0, 0)
G1 Z10 F1800 ;Go to zero offset
M109 S235 ;Wait for Hotend Temperature
;M190 S60 ;Wait for Bed Temperature
G92 E0 ;Zero set extruder position
;G1 E20 F200 ;Feed filament to clear nozzle
;G92 E0 ;Zero set extruder position
G1 Z10 F1800 ;Go to zero offset
G92 E0
G92 E0
G1 F3600 E-5
;LAYER_COUNT:14
;LAYER:0
;START_TRANSFORM
M107
G0 F1440 X74.653 Y97.161 Z0.2
;TYPE:SKIRT
G1 F3600 E0
G1 F1080 X73.71 Y96.422 E0.03985
G1 X72.629 Y95.076 E0.09727
G1 X71.631 Y93.06 E0.17209
G1 X71.409 Y91.554 E0.22272
G1 X71.357 Y48.578 E1.6521
G1 X71.779 Y46.521 E1.72195
G1 X72.774 Y44.75 E1.78951
G1 X73.547 Y43.752 E1.8315
G1 X74.9 Y42.66 E1.88932
G1 X76.879 Y41.674 E1.96286
G1 X78.403 Y41.452 E2.01409
G1 X121.493 Y41.4 E3.44727
G1 X123.55 Y41.822 E3.51711
G1 X125.321 Y42.817 E3.58467
G1 X126.319 Y43.59 E3.62666
G1 X127.411 Y44.943 E3.68449
G1 X128.397 Y46.922 E3.75803
G1 X128.619 Y48.446 E3.80925
G1 X128.671 Y91.422 E5.23864
G1 X128.249 Y93.479 E5.30848
G1 X127.254 Y95.25 E5.37604
G1 X126.481 Y96.248 E5.41803
G1 X125.128 Y97.34 E5.47586
G1 X123.149 Y98.326 E5.5494
G1 X121.625 Y98.548 E5.60062
G1 X78.44 Y98.6 E7.03696
G1 X76.439 Y98.161 E7.1051
G1 X74.653 Y97.161 E7.17318
G0 F1440 X74.9 Y96.846
G1 F1080 X73.994 Y96.136 E7.21146
G1 X72.965 Y94.855 E7.26611
G1 X72.018 Y92.942 E7.33711
G1 X71.805 Y91.496 E7.38572
G1 X71.757 Y48.619 E8.81182
G1 X72.159 Y46.662 E8.87827
G1 X73.09 Y44.995 E8.94177
G1 X73.835 Y44.033 E8.98224
G1 X75.117 Y42.999 E9.03702
G1 X76.999 Y42.061 E9.10696
G1 X78.461 Y41.848 E9.1561
G1 X121.452 Y41.8 E10.58599
G1 X123.409 Y42.202 E10.65244
G1 X125.076 Y43.133 E10.71594
G1 X126.038 Y43.878 E10.75641
G1 X127.072 Y45.16 E10.81119
G1 X128.01 Y47.042 E10.88113
G1 X128.223 Y48.504 E10.93027
G1 X128.271 Y91.381 E12.35637
G1 X127.869 Y93.338 E12.42282
G1 X126.938 Y95.005 E12.48632
G1 X126.193 Y95.967 E12.52679
G1 X124.911 Y97.001 E12.58157
G1 X123.029 Y97.939 E12.65151
G1 X121.567 Y98.152 E12.70065
G1 X78.485 Y98.2 E14.13356
G1 X76.581 Y97.782 E14.1984
G1 X74.9 Y96.846 E14.26239
G0 F1440 X75.147 Y96.531
G1 F1080 X74.278 Y95.85 E14.29911
G1 X73.301 Y94.634 E14.35099
G1 X72.405 Y92.824 E14.41817
G1 X72.201 Y91.438 E14.46476
G1 X72.157 Y48.661 E15.88753
G1 X72.539 Y46.803 E15.95062
G1 X73.406 Y45.24 E16.01007
G1 X74.123 Y44.314 E16.04902
G1 X75.334 Y43.338 E16.10075
G1 X77.119 Y42.448 E16.16709
G1 X78.519 Y42.244 E16.21415
G1 X121.41 Y42.2 E17.64071
G1 X123.268 Y42.582 E17.7038
G1 X124.831 Y43.449 E17.76325
G1 X125.757 Y44.166 E17.8022
G1 X126.733 Y45.377 E17.85393
G1 X127.623 Y47.162 E17.92027
G1 X127.827 Y48.562 E17.96733
G1 X127.871 Y91.339 E19.3901
G1 X127.489 Y93.197 E19.45319
G1 X126.622 Y94.76 E19.51263
G1 X125.905 Y95.686 E19.55159
G1 X124.694 Y96.662 E19.60332
G1 X122.909 Y97.552 E19.66966
G1 X121.509 Y97.756 E19.71671
G1 X78.53 Y97.8 E21.1462
G1 X76.724 Y97.403 E21.2077
G1 X75.147 Y96.531 E21.26764
G0 F1440 X75.394 Y96.216
G1 F1080 X74.562 Y95.564 E21.3028
G1 X73.64 Y94.417 E21.35174
G1 X72.792 Y92.703 E21.41535
G1 X72.597 Y91.38 E21.45982
G1 X72.557 Y48.703 E22.87927
G1 X72.919 Y46.943 E22.93903
G1 X73.756 Y45.434 E22.99642
G1 X74.408 Y44.598 E23.03169
G1 X75.554 Y43.675 E23.08063
G1 X77.239 Y42.835 E23.14325
G1 X78.577 Y42.64 E23.18822
G1 X121.368 Y42.6 E24.61146
G1 X123.128 Y42.962 E24.67122
G1 X124.637 Y43.799 E24.72861
G1 X125.473 Y44.451 E24.76387
G1 X126.396 Y45.597 E24.81282
G1 X127.236 Y47.282 E24.87544
G1 X127.431 Y48.62 E24.92041
G1 X127.471 Y91.297 E26.33985
G1 X127.109 Y93.057 E26.39962
G1 X126.272 Y94.566 E26.45701
G1 X125.62 Y95.402 E26.49227
G1 X124.474 Y96.325 E26.54121
G1 X122.789 Y97.165 E26.60383
G1 X121.451 Y97.36 E26.64881
G1 X78.575 Y97.4 E28.07487
G1 X76.866 Y97.024 E28.13307
G1 X75.394 Y96.216 E28.18892
G0 F1440 X75.641 Y95.901
G1 F1080 X74.843 Y95.276 E28.22263
G1 X73.978 Y94.199 E28.26858
G1 X73.179 Y92.585 E28.32848
G1 X72.993 Y91.322 E28.37094
G1 X72.957 Y48.745 E29.78705
G1 X73.299 Y47.083 E29.84349
G1 X74.106 Y45.628 E29.89883
G1 X74.692 Y44.883 E29.93036
G1 X75.774 Y44.012 E29.97655
G1 X77.359 Y43.222 E30.03546
G1 X78.635 Y43.036 E30.07835
G1 X121.326 Y43 E31.49825
G1 X122.988 Y43.342 E31.55469
G1 X124.443 Y44.149 E31.61003
G1 X125.188 Y44.735 E31.64155
G1 X126.059 Y45.817 E31.68775
G1 X126.849 Y47.402 E31.74666
G1 X127.035 Y48.678 E31.78954
G1 X127.071 Y91.255 E33.20566
G1 X126.729 Y92.917 E33.2621
G1 X125.922 Y94.372 E33.31744
G1 X125.336 Y95.117 E33.34896
G1 X124.254 Y95.988 E33.39516
G1 X122.669 Y96.778 E33.45406
G1 X121.393 Y96.964 E33.49695
G1 X78.62 Y97 E34.91959
G1 X77.006 Y96.645 E34.97455
G1 X75.641 Y95.901 E35.02626
G0 F1440 X75.888 Y95.586
G1 F1080 X75.127 Y94.99 E35.05841
G1 X74.314 Y93.978 E35.10159
G1 X73.566 Y92.467 E35.15766
G1 X73.389 Y91.264 E35.19811
G1 X73.357 Y48.787 E36.6109
G1 X73.679 Y47.223 E36.66401
G1 X74.456 Y45.822 E36.71729
G1 X74.977 Y45.168 E36.7451
G1 X75.992 Y44.351 E36.78844
G1 X77.48 Y43.609 E36.84374
G1 X78.693 Y43.432 E36.88451
G1 X121.284 Y43.4 E38.3011
G1 X122.848 Y43.722 E38.3542
G1 X124.249 Y44.499 E38.40749
G1 X124.903 Y45.02 E38.4353
G1 X125.72 Y46.035 E38.47864
G1 X126.462 Y47.523 E38.53394
G1 X126.639 Y48.736 E38.57471
G1 X126.671 Y91.213 E39.9875
G1 X126.349 Y92.777 E40.04061
G1 X125.572 Y94.178 E40.0939
G1 X125.051 Y94.832 E40.12171
G1 X124.036 Y95.649 E40.16504
G1 X122.548 Y96.391 E40.22035
G1 X121.335 Y96.568 E40.26112
G1 X78.665 Y96.6 E41.68033
G1 X77.146 Y96.266 E41.73206
G1 X75.888 Y95.586 E41.77962
G1 F3600 E36.77962
G0 F1440 X77.287 Y95.887
G1 F3600 E41.77962
G1 F1080 X76.135 Y95.271 E41.82307
G1 X75.411 Y94.704 E41.85366
G1 X74.65 Y93.757 E41.89406
G1 X73.953 Y92.349 E41.94632
G1 X73.785 Y91.206 E41.98474
G1 X73.757 Y48.829 E43.39421
G1 X74.059 Y47.362 E43.44402
G1 X74.769 Y46.071 E43.49303
G1 X75.261 Y45.454 E43.51927
G1 X76.212 Y44.688 E43.55989
G1 X77.6 Y43.996 E43.61147
G1 X78.751 Y43.828 E43.65016
G1 X121.242 Y43.8 E45.06342
G1 X122.709 Y44.102 E45.11323
G1 X124 Y44.812 E45.16224
G1 X124.617 Y45.304 E45.18849
G1 X125.383 Y46.255 E45.2291
G1 X126.075 Y47.643 E45.28068
G1 X126.243 Y48.794 E45.31937
G1 X126.271 Y91.171 E46.72884
G1 X125.969 Y92.638 E46.77865
G1 X125.259 Y93.929 E46.82766
G1 X124.767 Y94.546 E46.8539
G1 X123.816 Y95.312 E46.89452
G1 X122.428 Y96.004 E46.9461
G1 X121.277 Y96.172 E46.98479
G1 X78.71 Y96.2 E48.40058
G1 X77.287 Y95.887 E48.44904
G1 F3600 E43.44904
G0 F1440 X78.755 Y95.8
G1 F3600 E48.44904
G1 F1080 X77.427 Y95.508 E48.49426
G1 X76.324 Y94.918 E48.53587
G1 X75.696 Y94.419 E48.56254
G1 X74.986 Y93.536 E48.60023
G1 X74.34 Y92.231 E48.64866
G1 X74.181 Y91.148 E48.68507
G1 X74.157 Y48.871 E50.09121
G1 X74.439 Y47.5 E50.13776
G1 X75.082 Y46.32 E50.18246
G1 X75.547 Y45.737 E50.20726
G1 X76.428 Y45.027 E50.24489
G1 X77.72 Y44.383 E50.29291
G1 X78.809 Y44.224 E50.32951
G1 X121.2 Y44.2 E51.73944
G1 X122.571 Y44.482 E51.786
G1 X123.751 Y45.125 E51.83069
G1 X124.334 Y45.59 E51.8555
G1 X125.044 Y46.471 E51.89313
G1 X125.688 Y47.763 E51.94114
G1 X125.847 Y48.852 E51.97775
G1 X125.871 Y91.129 E53.38389
G1 X125.589 Y92.5 E53.43044
G1 X124.946 Y93.68 E53.47514
G1 X124.481 Y94.263 E53.49994
G1 X123.6 Y94.973 E53.53757
G1 X122.308 Y95.617 E53.58559
G1 X121.219 Y95.776 E53.62219
G1 X78.755 Y95.8 E55.03455
G0 F1440 X78.8 Y95.4
G1 F1080 X77.567 Y95.129 E55.07654
G1 X76.513 Y94.565 E55.1163
G1 X75.982 Y94.136 E55.139
G1 X75.322 Y93.315 E55.17404
G1 X74.727 Y92.113 E55.21865
G1 X74.577 Y91.09 E55.25304
G1 X74.557 Y48.913 E56.65585
G1 X74.819 Y47.638 E56.69914
G1 X75.395 Y46.569 E56.73953
G1 X75.831 Y46.022 E56.7628
G1 X76.648 Y45.364 E56.79769
G1 X77.84 Y44.77 E56.84198
G1 X78.867 Y44.62 E56.8765
G1 X121.158 Y44.6 E58.28311
G1 X122.433 Y44.862 E58.3264
G1 X123.502 Y45.438 E58.36679
G1 X124.049 Y45.874 E58.39005
G1 X124.707 Y46.691 E58.42495
G1 X125.301 Y47.883 E58.46924
G1 X125.451 Y48.91 E58.50376
G1 X125.471 Y91.087 E59.90657
G1 X125.209 Y92.362 E59.94987
G1 X124.633 Y93.431 E59.99026
G1 X124.197 Y93.978 E60.01352
G1 X123.38 Y94.636 E60.04841
G1 X122.188 Y95.23 E60.09271
G1 X121.161 Y95.38 E60.12723
G1 X78.8 Y95.4 E61.53616
G0 F1440 X78.845 Y95
G1 F1080 X77.707 Y94.75 E61.57491
G1 X76.735 Y94.23 E61.61158
G1 X76.268 Y93.852 E61.63156
G1 X75.658 Y93.094 E61.66392
G1 X75.114 Y91.995 E61.70471
G1 X74.973 Y91.032 E61.73708
G1 X74.957 Y48.954 E63.1366
G1 X75.199 Y47.776 E63.1766
G1 X75.747 Y46.759 E63.21502
G1 X76.113 Y46.309 E63.23431
G1 X76.868 Y45.701 E63.26656
G1 X77.96 Y45.157 E63.30713
G1 X78.925 Y45.016 E63.33957
G1 X121.117 Y45 E64.74288
G1 X122.295 Y45.242 E64.78288
G1 X123.312 Y45.79 E64.8213
G1 X123.762 Y46.156 E64.8406
G1 X124.37 Y46.911 E64.87284
G1 X124.914 Y48.003 E64.91342
G1 X125.055 Y48.968 E64.94585
G1 X125.071 Y91.046 E66.34537
G1 X124.829 Y92.224 E66.38537
G1 X124.281 Y93.241 E66.42379
G1 X123.915 Y93.691 E66.44309
G1 X123.16 Y94.299 E66.47533
G1 X122.068 Y94.843 E66.51591
G1 X121.103 Y94.984 E66.54834
G1 X78.845 Y95 E67.95385
G0 F1440 X78.89 Y94.6
G1 F1080 X77.847 Y94.371 E67.98937
G1 X76.924 Y93.877 E68.02419
G1 X76.555 Y93.57 E68.04015
G1 X75.996 Y92.875 E68.06982
G1 X75.501 Y91.876 E68.1069
G1 X75.369 Y90.974 E68.13722
G1 X75.357 Y48.995 E69.53345
G1 X75.579 Y47.914 E69.57015
G1 X76.062 Y47.006 E69.60436
G1 X76.364 Y46.621 E69.62063
G1 X77.088 Y46.038 E69.65155
G1 X78.08 Y45.544 E69.68841
G1 X78.983 Y45.412 E69.71876
G1 X121.076 Y45.4 E71.11878
G1 X122.157 Y45.622 E71.15548
G1 X123.065 Y46.105 E71.18969
G1 X123.45 Y46.407 E71.20597
G1 X124.033 Y47.131 E71.23688
G1 X124.527 Y48.123 E71.27374
G1 X124.659 Y49.026 E71.30409
G1 X124.671 Y91.005 E72.70032
G1 X124.449 Y92.086 E72.73703
G1 X123.966 Y92.994 E72.77123
G1 X123.664 Y93.379 E72.78751
G1 X122.94 Y93.962 E72.81843
G1 X121.948 Y94.456 E72.85528
G1 X121.045 Y94.588 E72.88564
G1 X78.89 Y94.6 E74.28772
G0 F1440 X78.935 Y94.2
G1 F1080 X77.987 Y93.992 E74.32
G1 X77.113 Y93.524 E74.35297
G1 X76.867 Y93.319 E74.36362
G1 X76.334 Y92.656 E74.39192
G1 X75.888 Y91.757 E74.4253
G1 X75.765 Y90.916 E74.45357
G1 X75.757 Y49.036 E75.8465
G1 X75.959 Y48.05 E75.87998
G1 X76.383 Y47.245 E75.91024
G1 X76.615 Y46.933 E75.92317
G1 X77.308 Y46.375 E75.95276
G1 X78.2 Y45.931 E75.9859
G1 X79.041 Y45.808 E76.01417
G1 X121.035 Y45.8 E77.4109
G1 X122.021 Y46.002 E77.44437
G1 X122.826 Y46.426 E77.47463
G1 X123.138 Y46.658 E77.48756
G1 X123.696 Y47.351 E77.51716
G1 X124.14 Y48.243 E77.5503
G1 X124.263 Y49.084 E77.57857
G1 X124.271 Y90.964 E78.9715
G1 X124.069 Y91.95 E79.00498
G1 X123.645 Y92.755 E79.03524
G1 X123.413 Y93.067 E79.04817
G1 X122.72 Y93.625 E79.07776
G1 X121.828 Y94.069 E79.1109
G1 X120.987 Y94.192 E79.13917
G1 X78.935 Y94.2 E80.53783
G0 F1440 X78.98 Y93.8
G1 F1080 X78.127 Y93.613 E80.56687
G1 X77.302 Y93.171 E80.598
G1 X77.179 Y93.068 E80.60334
G1 X76.672 Y92.437 E80.63026
G1 X76.275 Y91.637 E80.65996
G1 X76.161 Y90.858 E80.68615
G1 X76.157 Y49.077 E82.07579
G1 X76.339 Y48.187 E82.10601
G1 X76.737 Y47.432 E82.13439
G1 X76.906 Y47.212 E82.14362
G1 X77.524 Y46.714 E82.17002
G1 X78.32 Y46.318 E82.19959
G1 X79.099 Y46.204 E82.22577
G1 X120.994 Y46.2 E83.61921
G1 X121.884 Y46.382 E83.64942
G1 X122.639 Y46.78 E83.67781
G1 X122.859 Y46.949 E83.68703
G1 X123.357 Y47.567 E83.71343
G1 X123.753 Y48.363 E83.743
G1 X123.867 Y49.142 E83.76919
G1 X123.871 Y90.923 E85.15883
G1 X123.689 Y91.813 E85.18904
G1 X123.291 Y92.568 E85.21743
G1 X123.122 Y92.788 E85.22666
G1 X122.504 Y93.286 E85.25306
G1 X121.708 Y93.682 E85.28263
G1 X120.929 Y93.796 E85.30881
G1 X78.98 Y93.8 E86.70404
G0 F1440 X79.025 Y93.4
G1 F1080 X78.267 Y93.234 E86.72985
G1 X77.491 Y92.818 E86.75913
G1 X77.011 Y92.22 E86.78464
G1 X76.662 Y91.517 E86.81074
G1 X76.557 Y90.8 E86.83485
G1 X76.557 Y49.118 E88.22119
G1 X76.72 Y48.322 E88.24822
G1 X77.091 Y47.618 E88.27469
G1 X77.194 Y47.493 E88.28007
G1 X77.74 Y47.053 E88.3034
G1 X78.44 Y46.705 E88.3294
G1 X79.157 Y46.6 E88.3535
G1 X120.953 Y46.6 E89.74364
G1 X121.749 Y46.763 E89.77066
G1 X122.453 Y47.134 E89.79713
G1 X122.578 Y47.237 E89.80252
G1 X123.018 Y47.783 E89.82584
G1 X123.366 Y48.483 E89.85184
G1 X123.471 Y49.2 E89.87594
G1 X123.471 Y90.882 E91.26229
G1 X123.308 Y91.678 E91.28932
G1 X122.937 Y92.382 E91.31578
G1 X122.834 Y92.507 E91.32117
G1 X122.288 Y92.947 E91.34449
G1 X121.588 Y93.295 E91.37049
G1 X120.871 Y93.4 E91.3946
G1 X79.025 Y93.4 E92.7864
G0 F1440 X79.07 Y93
G1 F1080 X78.404 Y92.854 E92.80908
G1 X77.754 Y92.505 E92.83362
G1 X77.349 Y92.001 E92.85512
G1 X77.048 Y91.395 E92.87763
G1 X76.957 Y90.8 E92.89765
G1 X76.957 Y49.159 E94.28263
G1 X77.101 Y48.457 E94.30647
G1 X77.445 Y47.804 E94.33101
G1 X77.956 Y47.392 E94.35285
G1 X78.562 Y47.091 E94.37535
G1 X79.157 Y47 E94.39537
G1 X120.912 Y47 E95.78415
G1 X121.614 Y47.144 E95.80798
G1 X122.267 Y47.488 E95.83253
G1 X122.679 Y47.999 E95.85436
G1 X122.98 Y48.605 E95.87687
G1 X123.071 Y49.2 E95.89689
G1 X123.071 Y90.841 E97.28187
G1 X122.927 Y91.543 E97.30571
G1 X122.583 Y92.196 E97.33026
G1 X122.072 Y92.608 E97.35209
G1 X121.466 Y92.909 E97.37459
G1 X120.871 Y93 E97.39461
G1 X79.07 Y93 E98.78492
G0 F1440 X79.115 Y92.6
G1 F1080 X78.541 Y92.474 E98.80447
G1 X78.016 Y92.192 E98.82429
G1 X77.707 Y91.823 E98.84029
G1 X77.434 Y91.274 E98.86069
G1 X77.357 Y90.8 E98.87666
G1 X77.357 Y49.2 E100.26028
G1 X77.481 Y48.594 E100.28085
G1 X77.762 Y48.062 E100.30087
G1 X78.134 Y47.75 E100.31701
G1 X78.683 Y47.477 E100.33741
G1 X79.157 Y47.4 E100.35338
G1 X120.871 Y47.4 E101.74079
G1 X121.477 Y47.524 E101.76137
G1 X122.009 Y47.805 E101.78138
G1 X122.321 Y48.177 E101.79752
G1 X122.594 Y48.726 E101.81792
G1 X122.671 Y49.2 E101.83389
G1 X122.671 Y90.8 E103.21751
G1 X122.547 Y91.406 E103.23808
G1 X122.266 Y91.938 E103.2581
G1 X121.894 Y92.25 E103.27424
G1 X121.345 Y92.523 E103.29464
G1 X120.871 Y92.6 E103.31061
G1 X79.115 Y92.6 E104.69942
G0 F1440 X79.115 Y92.2
G1 F1080 X78.634 Y92.085 E104.71587
G1 X78.274 Y91.877 E104.7297
G1 X78.065 Y91.645 E104.74008
G1 X77.819 Y91.151 E104.75844
G1 X77.757 Y90.8 E104.77029
G1 X77.757 Y49.2 E106.15391
G1 X77.835 Y48.781 E106.16809
G1 X78.08 Y48.317 E106.18554
G1 X78.312 Y48.108 E106.19593
G1 X78.806 Y47.862 E106.21428
G1 X79.157 Y47.8 E106.22614
G1 X120.871 Y47.8 E107.61355
G1 X121.29 Y47.878 E107.62773
G1 X121.754 Y48.123 E107.64518
G1 X121.963 Y48.355 E107.65556
G1 X122.209 Y48.849 E107.67392
G1 X122.271 Y49.2 E107.68577
G1 X122.271 Y90.8 E109.0694
G1 X122.193 Y91.219 E109.08357
G1 X121.948 Y91.683 E109.10102
G1 X121.716 Y91.892 E109.11141
G1 X121.222 Y92.138 E109.12976
G1 X120.871 Y92.2 E109.14162
G1 X79.115 Y92.2 E110.53043
G0 F1440 X79.157 Y91.8
G1 F1080 X120.871 Y91.8 E111.91784
G1 X121.144 Y91.746 E111.9271
G1 X121.526 Y91.54 E111.94153
G1 X121.664 Y91.401 E111.94805
G1 X121.801 Y91.138 E111.95791
G1 X121.871 Y90.8 E111.96939
G1 X121.871 Y49.2 E113.35301
G1 X121.817 Y48.927 E113.36227
G1 X121.611 Y48.545 E113.3767
G1 X121.472 Y48.407 E113.38322
G1 X121.209 Y48.27 E113.39308
G1 X120.871 Y48.2 E113.40456
G1 X79.157 Y48.2 E114.79197
G1 X78.884 Y48.254 E114.80123
G1 X78.502 Y48.46 E114.81567
G1 X78.364 Y48.599 E114.82218
G1 X78.227 Y48.862 E114.83204
G1 X78.157 Y49.2 E114.84352
G1 X78.157 Y90.8 E116.22715
G1 X78.211 Y91.073 E116.2364
G1 X78.417 Y91.455 E116.25084
G1 X78.556 Y91.593 E116.25735
G1 X78.819 Y91.73 E116.26721
G1 X79.157 Y91.8 E116.27869
G0 F1440 X79.157 Y91
G1 F1080 X79.038 Y90.961 E116.28286
G1 X78.957 Y90.8 E116.28885
G1 X78.957 Y49.2 E117.67248
G1 X78.996 Y49.081 E117.67664
G1 X79.157 Y49 E117.68264
G1 X120.871 Y49 E119.07005
G1 X120.99 Y49.039 E119.07421
G1 X121.071 Y49.2 E119.08021
G1 X121.071 Y90.8 E120.46383
G1 X121.032 Y90.919 E120.468
G1 X120.871 Y91 E120.47399
G1 X79.157 Y91 E121.8614
G0 F1440 X79.157 Y91.4
G1 F1080 X78.913 Y91.341 E121.86975
G1 X78.761 Y91.25 E121.87564
G1 X78.6 Y90.98 E121.8861
G1 X78.557 Y90.8 E121.89226
G1 X78.557 Y49.2 E123.27588
