; FLAVOR:Marlin
; TIME:1281
; Filament used: 0.814873m
; Layer height: 0.2
; MINX:71.357
; MINY:41.4
; MINZ:0.2
; MAXX:128.671
; MAXY:98.6
; MAXZ:2.8
; TARGET_MACHINE.NAME:Snapmaker A350
; Generated with Cura_SteamEngine 5.9.1
M82  ; absolute extrusion mode
M104 S235 ; Set Hotend Temperature
; M140 S60 ;Set Bed Temperature
G28  ; home
G90  ; absolute positioning
G1 X50 Y50 F2000 ; Move to the starting point (0, 0)
G1 Z10 F1800 ; Go to zero offset
M109 S235 ; Wait for Hotend Temperature
; M190 S60 ;Wait for Bed Temperature
G92 E0 ; Zero set extruder position
; G1 E20 F200 ;Feed filament to clear nozzle
; G92 E0 ;Zero set extruder position
G1 Z10 F1800 ; Go to zero offset
G92 E0
G92 E0
G1 F3600 E-5
; LAYER_COUNT:14
; LAYER:0
; START_TRANSFORM SHIFT X:50, Y:50, theta:45
M107
G0 F1440 X34.08444056905319 Y171.49084450278548 Z0.2
; TYPE:SKIRT
G1 F3600 E0
G1 F1080 X33.94019078569113 Y170.3014908968297 E0.03985
G1 X34.12757408270558 Y168.58534273888995 E0.09727
G1 X34.84740878595346 Y166.4541229003937 E0.17209
G1 X35.75533389299701 Y165.23224238250336 E0.22272
G1 X66.10718536864837 Y134.8068518016086 E1.6521
G1 X67.86010307920981 Y133.6507322143686 E1.72195
G1 X69.81596043597182 Y133.10201735216782 E1.78951
G1 X71.06824654545318 Y132.94291832640084 E1.8315
G1 X72.7971226254543 Y133.12747319629054 E1.88932
G1 X74.89369423167241 Y133.82963023000877 E1.96286
G1 X76.12830267162413 Y134.75028325911364 E2.01409
G1 X106.63430342557416 Y165.18274490782028 E3.44727
G1 X107.79042301281416 Y166.93566261838174 E3.51711
G1 X108.33913787501493 Y168.89151997514375 E3.58467
G1 X108.4982369007819 Y170.1438060846251 E3.62666
G1 X108.31368203089221 Y171.8726821646262 E3.68449
G1 X107.61152499717397 Y173.96925377084432 E3.75803
G1 X106.69087196806908 Y175.20386221079605 E3.80925
G1 X76.3390204924177 Y205.62925279169082 E5.23864
G1 X74.58610278185625 Y206.78537237893082 E5.30848
G1 X72.63024542509427 Y207.33408724113158 E5.37604
G1 X71.37795931561288 Y207.49318626689856 E5.41803
G1 X69.64908323561178 Y207.30863139700887 E5.47586
G1 X67.55251162939368 Y206.60647436329063 E5.5494
G1 X66.31790318944195 Y205.68582133418573 E5.60062
G1 X35.744727291279204 Y175.18618454126636 E7.03696
G1 X34.640226499065804 Y173.46084399517122 E7.1051
G1 X34.08444056905319 Y171.49084450278548 E7.17318
G0 F1440 X34.481834580080026 Y171.4427612416648
G1 F1080 X34.34324165096747 Y170.30007668326732 E7.21146
G1 X34.52143255982648 Y168.66666001872642 E7.26611
G1 X35.204497710452685 Y166.64433462453286 E7.33711
G1 X36.076360371655696 Y165.4712444745444 E7.38572
G1 X66.36103670309434 Y135.11868589211184 E8.81182
G1 X68.0291015999134 Y134.0191348473668 E8.87827
G1 X69.86616501743606 Y133.49870425641348 E8.94177
G1 X71.0731962929215 Y133.34526208489598 E8.98224
G1 X72.71085559814954 Y133.52062456663026 E9.03702
G1 X74.7048967210956 Y134.18813336807034 E9.10696
G1 X75.88930057958306 Y135.07130973777237 E9.1561
G1 X106.32246933507089 Y165.43659624226626 E10.58599
G1 X107.42202037981598 Y167.10466113908535 E10.65244
G1 X107.94245097076927 Y168.941724556608 E10.71594
G1 X108.09589314228674 Y170.1487558320934 E10.75641
G1 X107.92053066055249 Y171.78641513732146 E10.81119
G1 X107.25302185911238 Y173.78045626026753 E10.88113
G1 X106.3698454894104 Y174.96486011875498 E10.93027
G1 X76.08516915797173 Y205.31741870118753 E12.35637
G1 X74.41710426115267 Y206.41696974593262 E12.42282
G1 X72.58004084363003 Y206.93740033688593 E12.48632
G1 X71.37300956814458 Y207.0908425084034 E12.52679
G1 X69.73535026291654 Y206.91548002666914 E12.58157
G1 X67.74130913997047 Y206.24797122522904 E12.65151
G1 X66.55690528148301 Y205.36479485552704 E12.70065
G1 X36.059389808907206 Y174.93516163394517 E14.13356
G1 X35.008629132064016 Y173.29325968803 E14.1984
G1 X34.481834580080026 Y171.4427612416648 E14.26239
G0 F1440 X34.879228591106866 Y171.39467798054415
G1 F1080 X34.74629251624381 Y170.29866246970496 E14.29911
G1 X34.91529103694738 Y168.7479772985629 E14.35099
G1 X35.56158663495189 Y166.83454634867206 E14.41817
G1 X36.397386850314376 Y165.71024656658545 E14.46476
G1 X66.61418093075912 Y135.43122708939632 E15.88753
G1 X68.198100120617 Y134.38753748036495 E15.95062
G1 X69.9163695989003 Y133.89539116065913 E16.01007
G1 X71.0781460403898 Y133.74760584339114 E16.04902
G1 X72.62458857084478 Y133.91377593696996 E16.10075
G1 X74.51609921051879 Y134.54663650613193 E16.16709
G1 X75.65029848754202 Y135.39233621643103 E16.21415
G1 X106.00992813778643 Y165.68974046993105 E17.64071
G1 X107.05361774681778 Y167.2736596597889 E17.7038
G1 X107.54576406652362 Y168.99192913807224 E17.76325
G1 X107.6935493837916 Y170.15370557956174 E17.8022
G1 X107.52737929021276 Y171.7001481100167 E17.85393
G1 X106.89451872105082 Y173.59165874969074 E17.92027
G1 X106.0488190107517 Y174.72585802671392 E17.96733
G1 X75.83202493030694 Y205.0048775039031 E19.3901
G1 X74.24810574044909 Y206.04856711293445 E19.45319
G1 X72.52983626216577 Y206.54071343264027 E19.51263
G1 X71.36805982067628 Y206.68849874990826 E19.55159
G1 X69.8216172902213 Y206.52232865632942 E19.60332
G1 X67.93010665054729 Y205.88946808716747 E19.66966
G1 X66.79590737352406 Y205.04376837686837 E19.71671
G1 X36.374052326535235 Y174.68413872662393 E21.1462
G1 X35.37773887184338 Y173.12638248766999 E21.2077
G1 X34.879228591106866 Y171.39467798054415 E21.26764
G0 F1440 X35.27662260213371 Y171.34659471942342
G1 F1080 X35.14934338152014 Y170.29724825614258 E21.3028
G1 X35.3084424072871 Y168.83424432586764 E21.35174
G1 X35.92079687979464 Y167.0226367524677 E21.41535
G1 X36.718413328973085 Y165.94924865862652 E21.45982
G1 X66.86732515842391 Y135.74376828668076 E22.87927
G1 X68.36780574810176 Y134.75523300658196 E22.93903
G1 X70.02667825676541 Y134.2800572496246 E22.99642
G1 X71.07885314717099 Y134.14994960188628 E23.03169
G1 X72.54185707744595 Y134.3076344140909 E23.08063
G1 X74.32730169994198 Y134.90513964419353 E23.14325
G1 X75.41129639550095 Y135.71336269508976 E23.18822
G1 X105.69738694050197 Y165.94288469759584 E24.61146
G1 X106.68592222060077 Y167.4433652872737 E24.67122
G1 X107.16109797755814 Y169.10223779593733 E24.72861
G1 X107.29120562529646 Y170.1544126863429 E24.76387
G1 X107.13352081309185 Y171.61741661661787 E24.81282
G1 X106.53601558298922 Y173.40286123911392 E24.87544
G1 X105.72779253209299 Y174.4868559346729 E24.92041
G1 X75.57888070264218 Y204.69233630661864 E26.33985
G1 X74.0784001129643 Y205.68087158671744 E26.39962
G1 X72.41952760430067 Y206.1560473436748 E26.45701
G1 X71.3673527138951 Y206.28615499141313 E26.49227
G1 X69.90434878362014 Y206.1284701792085 E26.54121
G1 X68.11890416112409 Y205.53096494910588 E26.60383
G1 X67.03490946556511 Y204.72274189820965 E26.64881
G1 X36.688714844163236 Y174.4331158193027 E28.07487
G1 X35.746141504841574 Y172.95879818052876 E28.13307
G1 X35.27662260213371 Y171.34659471942342 E28.18892
G0 F1440 X35.67401661316056 Y171.29851145830276
G1 F1080 X35.551687140015275 Y170.2922985086743 E28.22263
G1 X35.701593777626826 Y168.91909713961002 E28.26858
G1 X36.277885804293874 Y167.21284847660687 E28.32848
G1 X37.03943980763176 Y166.18825075066758 E28.37094
G1 X67.12046938608869 Y136.0563094839652 E29.78705
G1 X68.53751137558655 Y135.12292853279897 E29.84349
G1 X70.1369869146305 Y134.66472333859008 E29.89883
G1 X71.0781460403898 Y134.55229336038144 E29.93036
G1 X72.45912558404713 Y134.70149289121179 E29.97655
G1 X74.13850418936516 Y135.2636427822551 E30.03546
G1 X75.1722943034599 Y136.03438917374842 E30.07835
G1 X105.38484574321753 Y166.1960289252606 E31.49825
G1 X106.31822669438377 Y167.61307091475845 E31.55469
G1 X106.77643188859264 Y169.21254645380242 E31.61003
G1 X106.8888618668013 Y170.15370557956174 E31.64155
G1 X106.73966233597095 Y171.53468512321905 E31.68775
G1 X106.17751244492766 Y173.2140637285371 E31.74666
G1 X105.40676605343431 Y174.24785384263183 E31.78954
G1 X75.32573647497739 Y204.37979510933417 E33.20566
G1 X73.90869448547954 Y205.31317606050044 E33.2621
G1 X72.30921894643556 Y205.77138125470933 E33.31744
G1 X71.36805982067628 Y205.88381123291796 E33.34896
G1 X69.98708027701896 Y205.73461170208762 E33.39516
G1 X68.3077016717009 Y205.17246181104431 E33.45406
G1 X67.27391155760617 Y204.40171541955095 E33.49695
G1 X37.003377361791266 Y174.1820929119815 E34.91959
G1 X36.1131299242774 Y172.78979965982518 E34.97455
G1 X35.67401661316056 Y171.29851145830276 E35.02626
G0 F1440 X36.07141062418739 Y171.25042819718206
G1 F1080 X35.9547380052916 Y170.2908842951119 E35.05841
G1 X36.09545225474773 Y169.00041441944646 E35.10159
G1 X36.63497472879307 Y167.40306020074604 E35.15766
G1 X37.36046628629046 Y166.4272528427086 E35.19811
G1 X67.37361361375348 Y136.36885068124968 E36.6109
G1 X68.7072170030713 Y135.49062405901597 E36.66401
G1 X70.2472955724956 Y135.04938942755558 E36.71729
G1 X71.0781460403898 Y134.95534422565777 E36.7451
G1 X72.37356566352355 Y135.0953513683327 E36.78844
G1 X73.95041378556955 Y135.62285302709785 E36.84374
G1 X74.93329221141886 Y136.35541565240712 E36.88451
G1 X105.07230454593308 Y166.4491731529254 E38.3011
G1 X105.95053116816676 Y167.78277654224323 E38.3542
G1 X106.39176579962717 Y169.32285511166754 E38.40749
G1 X106.48581100152498 Y170.15370557956174 E38.4353
G1 X106.34580385885005 Y171.44912520269548 E38.47864
G1 X105.81830220008487 Y173.02597332474147 E38.53394
G1 X105.08573957477562 Y174.0088517505908 E38.57471
G1 X75.07259224731261 Y204.06725391204972 E39.9875
G1 X73.73898885799477 Y204.94548053428343 E40.04061
G1 X72.19891028857047 Y205.38671516574382 E40.0939
G1 X71.36805982067628 Y205.48076036764164 E40.12171
G1 X70.07264019754251 Y205.3407532249667 E40.16504
G1 X68.49579207549652 Y204.81325156620156 E40.22035
G1 X67.51291364964722 Y204.0806889408923 E40.26112
G1 X37.318039879419274 Y173.93107000466026 E41.68033
G1 X36.4801183437132 Y172.6208011391216 E41.73206
G1 X36.07141062418739 Y171.25042819718206 E41.77962
G1 F3600 E36.77962
G0 F1440 X36.84781386993022 Y172.4525097251992
G1 F3600 E41.77962
G1 F1080 X36.46880463521423 Y171.20234493606137 E41.82307
G1 X36.357788870567944 Y170.28947008154955 E41.85366
G1 X36.48931073186864 Y169.08173169928293 E41.89406
G1 X36.99206365329226 Y167.59327192488524 E41.94632
G1 X37.681492764949155 Y166.66625493474967 E41.98474
G1 X67.62675784141825 Y136.68139187853413 E43.39421
G1 X68.87762973733726 Y135.8576124784518 E43.44402
G1 X70.29255040649156 Y135.44678343858243 E43.49303
G1 X71.07673182682743 Y135.3583950909341 E43.51927
G1 X72.29083417012473 Y135.48920984545362 E43.55989
G1 X73.76161627499273 Y135.98135616515944 E43.61147
G1 X74.6942901193778 Y136.6764421310658 E43.65016
G1 X104.75976334864862 Y166.7023173805902 E45.06342
G1 X105.58354274873095 Y167.9531892765092 E45.11323
G1 X105.99437178860033 Y169.36810994566346 E45.16224
G1 X106.08276013624865 Y170.15229136599936 E45.18849
G1 X105.95194538172913 Y171.36639370929663 E45.2291
G1 X105.45979906202331 Y172.83717581416468 E45.28068
G1 X104.76471309611692 Y173.76984965854973 E45.31937
G1 X74.81944801964781 Y203.75471271476528 E46.72884
G1 X73.56857612372882 Y204.5784921148476 E46.77865
G1 X72.15365545457453 Y204.989321154717 E46.82766
G1 X71.36947403423864 Y205.0777095023653 E46.8539
G1 X70.15537169094135 Y204.9468947478458 E46.89452
G1 X68.68458958607333 Y204.45474842813996 E46.9461
G1 X67.75191574168828 Y203.7596624622336 E46.98479
G1 X37.63270239704728 Y173.680047097339 E48.40058
G1 X36.84781386993022 Y172.4525097251992 E48.44904
G1 F3600 E43.44904
G0 F1440 X37.9473649146753 Y173.4290241900178
G1 F3600 E48.44904
G1 F1080 X37.214802289366034 Y172.2835112044956 E48.49426
G1 X36.852056510617324 Y171.08637942394677 E48.53587
G1 X36.76083973584427 Y170.28947008154955 E48.56254
G1 X36.88316920898954 Y169.16304897911937 E48.60023
G1 X37.349152577791486 Y167.7834836490244 E48.64866
G1 X38.00251924360786 Y166.9052570267907 E48.68507
G1 X67.87990206908304 Y136.99393307581857 E50.09121
G1 X69.0487495783844 Y136.22389379110643 E50.13776
G1 X70.33780524048748 Y135.84417744960925 E50.18246
G1 X71.07885314717097 Y135.76073884942923 E50.20726
G1 X72.20386003603878 Y135.88165410901212 E50.24489
G1 X73.57281876441593 Y136.33985930322103 E50.29291
G1 X74.45528802733675 Y136.9974686097245 E50.32951
G1 X104.44722215136416 Y166.95546160825498 E51.73944
G1 X105.21726143607631 Y168.12430911755632 E51.786
G1 X105.5969777775735 Y169.41336477965942 E51.83069
G1 X105.6804163777535 Y170.1544126863429 E51.8555
G1 X105.5595011181706 Y171.27941957521068 E51.89313
G1 X105.10129592396171 Y172.64837830358786 E51.94114
G1 X104.44368661745823 Y173.53084756650867 E51.97775
G1 X74.56630379198303 Y203.44217151748083 E53.38389
G1 X73.39745628268167 Y204.21221080219297 E53.43044
G1 X72.10840062057859 Y204.59192714369016 E53.47514
G1 X71.36735271389509 Y204.67536574387017 E53.49994
G1 X70.24234582502729 Y204.55445048428726 E53.53757
G1 X68.87338709665015 Y204.09624529007837 E53.58559
G1 X67.99091783372933 Y203.43863598357487 E53.62219
G1 X37.9473649146753 Y173.4290241900178 E55.03455
G0 F1440 X38.26202743230331 Y173.17800128269658
G1 F1080 X37.58179070880184 Y172.11451268379201 E55.07654
G1 X37.23530838602044 Y170.9704139118322 E55.1163
G1 X37.16318349433942 Y170.2915914018931 E55.139
G1 X37.27702768611046 Y169.24436625895584 E55.17404
G1 X37.70624150229069 Y167.9736953731636 E55.21865
G1 X38.32354572226653 Y167.14425911883177 E55.25304
G1 X68.13304629674784 Y137.30647427310305 E56.65585
G1 X69.21986941943155 Y136.59017510376106 E56.69914
G1 X70.38306007448341 Y136.24157146063607 E56.73953
G1 X71.0781460403898 Y136.16308260792437 E56.7628
G1 X72.12112854263995 Y136.27551258613303 E56.79769
G1 X73.38402125383914 Y136.6983624412826 E56.84198
G1 X74.2162859352957 Y137.3184950883832 E56.8765
G1 X104.13468095407971 Y167.20860583591974 E58.28311
G1 X104.85098012342169 Y168.29542895860348 E58.3264
G1 X105.19958376654665 Y169.45861961365534 E58.36679
G1 X105.27807261925835 Y170.15370557956174 E58.39005
G1 X105.16564264104969 Y171.19668808181189 E58.42495
G1 X104.74279278590014 Y172.45958079301107 E58.46924
G1 X104.12266013879955 Y173.2918454744676 E58.50376
G1 X74.31315956431825 Y203.12963032019638 E59.90657
G1 X73.22633644163453 Y203.84592948953835 E59.94987
G1 X72.06314578658265 Y204.1945331326633 E59.99026
G1 X71.36805982067628 Y204.273021985375 E60.01352
G1 X70.32507731842612 Y204.16059200716634 E60.04841
G1 X69.06218460722695 Y203.7377421520168 E60.09271
G1 X68.22991992577039 Y203.1176095049162 E60.12723
G1 X38.26202743230331 Y173.17800128269658 E61.53616
G0 F1440 X38.57668994993132 Y172.92697837537537
G1 F1080 X37.94877912823767 Y171.94551416308843 E61.57491
G1 X37.62916686314135 Y170.89051084555808 E61.61158
G1 X37.56623435961574 Y170.29300561545548 E61.63156
G1 X37.67088616323136 Y169.32568353879228 E61.66392
G1 X38.06333042678988 Y168.1639070973028 E61.70471
G1 X38.64457220092523 Y167.38326121087283 E61.73708
G1 X68.38689763119379 Y137.61830836360627 E63.1366
G1 X69.39098926047869 Y136.95645641641568 E63.1766
G1 X70.49761137303564 Y136.62482333603919 E63.21502
G1 X71.07461050648386 Y136.56542636641953 E63.23431
G1 X72.03839704924113 Y136.66937106325395 E63.26656
G1 X73.19522374326232 Y137.05686557934416 E63.30713
G1 X73.97728384325464 Y137.6395215670419 E63.33957
G1 X103.82284686357644 Y167.46245717036572 E64.74288
G1 X104.48469881076704 Y168.46654879965064 E64.78288
G1 X104.81633189114353 Y169.57317091220756 E64.8213
G1 X104.87572886076322 Y170.15017004565578 E64.8406
G1 X104.77178416392879 Y171.11395658841306 E64.87284
G1 X104.38428964783856 Y172.27078328243425 E64.91342
G1 X103.80163366014085 Y173.05284338242657 E64.94585
G1 X74.05930822987227 Y202.8177962296931 E66.34537
G1 X73.05521660058737 Y203.4796481768837 E66.38537
G1 X71.94859448803044 Y203.8112812572602 E66.42379
G1 X71.37159535458221 Y203.87067822687987 E66.44309
G1 X70.40780881182494 Y203.76673353004546 E66.47533
G1 X69.25098211780374 Y203.3792390139552 E66.51591
G1 X68.46892201781144 Y202.7965830262575 E66.54834
G1 X38.57668994993132 Y172.92697837537537 E67.95385
G0 F1440 X38.891352467559344 Y172.67595546805416
G1 F1080 X38.31576754767348 Y171.77651564238485 E67.98937
G1 X38.01241873854446 Y170.7745453334435 E68.02419
G1 X37.9685781181109 Y170.29654114936142 E68.04015
G1 X38.06474464035226 Y169.40982924575349 E68.06982
G1 X38.42112645807029 Y168.35341171466078 E68.1069
G1 X38.96559867958392 Y167.6222633029139 E68.13722
G1 X68.64074896563977 Y137.93014245410956 E69.53345
G1 X69.56210910152583 Y137.3227377290703 E69.57015
G1 X70.54569463415632 Y137.02221734706603 E69.60436
G1 X71.03147699283149 Y136.96352748422754 E69.62063
G1 X71.9556655558423 Y137.06322954037483 E69.65155
G1 X73.00642623268551 Y137.41536871740576 E69.68841
G1 X73.73828175121359 Y137.9605480457006 E69.71876
G1 X103.51101277307316 Y167.7163085048117 E71.11878
G1 X104.11841749811242 Y168.63766864069777 E71.15548
G1 X104.4189378801167 Y169.62125417332825 E71.18969
G1 X104.47762774295518 Y170.1070365320034 E71.20597
G1 X104.37792568680788 Y171.03122509501424 E71.23688
G1 X104.02578650977699 Y172.08198577185743 E71.27374
G1 X103.48060718148216 Y172.81384129038554 E71.30409
G1 X73.80545689542632 Y202.50596213918985 E72.70032
G1 X72.88409675954023 Y203.11336686422908 E72.73703
G1 X71.90051122690976 Y203.41388724623334 E72.77123
G1 X71.41472886823459 Y203.47257710907184 E72.78751
G1 X70.49054030522376 Y203.37287505292454 E72.81843
G1 X69.43977962838056 Y203.02073587589365 E72.85528
G1 X68.70792410985248 Y202.4755565475988 E72.88564
G1 X38.891352467559344 Y172.67595546805416 E74.28772
G0 F1440 X39.20601498518735 Y172.4249325607329
G1 F1080 X38.6827559671093 Y171.60751712168127 E74.32
G1 X38.39567061394757 Y170.6585798213289 E74.35297
G1 X38.36667923591892 Y170.3396746630138 E74.36362
G1 X38.458603117473174 Y169.49397495271467 E74.39192
G1 X38.77892248935068 Y168.54291633201876 E74.4253
G1 X39.286625158242614 Y167.86126539495496 E74.45357
G1 X68.89460030008574 Y138.24197654461284 E75.8465
G1 X69.73464315613536 Y137.6876048281626 E75.87998
G1 X70.60367739021362 Y137.4181971445305 E75.91024
G1 X70.98834347917911 Y137.36162860203558 E75.92317
G1 X71.87293406244348 Y137.45708801749578 E75.95276
G1 X72.81762872210871 Y137.77387185546735 E75.9859
G1 X73.49927965917253 Y138.28157452435926 E76.01417
G1 X103.19917868256991 Y167.97015983925766 E77.4109
G1 X103.75355039902016 Y168.81020269530728 E77.44437
G1 X104.02295808265222 Y169.67923692938552 E77.47463
G1 X104.07952662514717 Y170.06390301835103 E77.48756
G1 X103.98406720968697 Y170.94849360161538 E77.51716
G1 X103.6672833717154 Y171.8931882612806 E77.5503
G1 X103.15958070282346 Y172.57483919834448 E77.57857
G1 X73.55160556098033 Y202.19412804868657 E78.9715
G1 X72.71156270493073 Y202.7484997651368 E79.00498
G1 X71.84252847085246 Y203.01790744876888 E79.03524
G1 X71.45786238188698 Y203.0744759912638 E79.04817
G1 X70.5732717986226 Y202.97901657580363 E79.07776
G1 X69.62857713895737 Y202.66223273783208 E79.1109
G1 X68.94692620189355 Y202.15453006894012 E79.13917
G1 X39.20601498518735 Y172.4249325607329 E80.53783
G0 F1440 X39.52067750281537 Y172.1739096534117
G1 F1080 X39.04974438654513 Y171.43851860097766 E80.56687
G1 X38.77892248935068 Y170.54261430921434 E80.598
G1 X38.76478035372695 Y170.38280817666617 E80.60334
G1 X38.852461594594075 Y169.57812065967588 E80.63026
G1 X39.137425627412256 Y168.73171384259558 E80.65996
G1 X39.6076516369013 Y168.10026748699602 E80.68615
G1 X69.14845163453171 Y138.5538106351161 E82.07579
G1 X69.90647010396368 Y138.05317903403602 E82.10601
G1 X70.72176422267177 Y137.80074191315242 E82.13439
G1 X70.99682876055334 Y137.7646794673119 E82.14362
G1 X71.78595992835753 Y137.84953228105428 E82.17002
G1 X72.62883121153189 Y138.1323749935289 E82.19959
G1 X73.26027756713148 Y138.60260100301798 E82.22577
G1 X102.88734459206663 Y168.22401117370364 E83.61921
G1 X103.38797619314673 Y168.9820296431356 E83.64942
G1 X103.64041331403031 Y169.7973237618437 E83.67781
G1 X103.67647575987083 Y170.07238829972528 E83.68703
G1 X103.59162294612844 Y170.86151946752946 E83.71343
G1 X103.30878023365382 Y171.70439075070382 E83.743
G1 X102.83855422416477 Y172.33583710630342 E83.76919
G1 X73.29775422653437 Y201.88229395818328 E85.15883
G1 X72.53973575710238 Y202.38292555926338 E85.18904
G1 X71.72444163839431 Y202.63536268014695 E85.21743
G1 X71.44937710051273 Y202.6714251259875 E85.22666
G1 X70.66024593270855 Y202.5865723122451 E85.25306
G1 X69.81737464953419 Y202.30372959977046 E85.28263
G1 X69.1859282939346 Y201.83350359028142 E85.30881
G1 X39.52067750281537 Y172.1739096534117 E86.70404
G0 F1440 X39.83534002044338 Y171.92288674609046
G1 F1080 X39.41673280598094 Y171.2695200802741 E86.72985
G1 X39.16217436475379 Y170.42664879709974 E86.75913
G1 X39.2456129649338 Y169.66438768698063 E86.78464
G1 X39.495928765473835 Y168.9205113531724 E86.81074
G1 X39.928678115560004 Y168.33926957903702 E86.83485
G1 X69.40230296897768 Y138.86564472561938 E88.22119
G1 X70.08041837213558 Y138.41804613312829 E88.24822
G1 X70.8405581619111 Y138.18257957499316 E88.27469
G1 X71.00177850802164 Y138.16702322580704 E88.28007
G1 X71.69898579427158 Y138.24197654461284 E88.3034
G1 X72.44003370095508 Y138.49087813159048 E88.3294
G1 X73.02127547509042 Y138.92362748167665 E88.3535
G1 X102.57551050156337 Y168.4778625081496 E89.74364
G1 X103.02310909405446 Y169.1559779113075 E89.77066
G1 X103.25857565218959 Y169.91611770108304 E89.79713
G1 X103.27413200137568 Y170.07733804719356 E89.80252
G1 X103.19917868256991 Y170.7745453334435 E89.82584
G1 X102.95027709559224 Y171.515593240127 E89.85184
G1 X102.51752774550607 Y172.09683501426235 E89.87594
G1 X73.0439028920884 Y201.57045986768003 E91.26229
G1 X72.3657874889305 Y202.01805846017112 E91.28932
G1 X71.60564769915496 Y202.25352501830625 E91.31578
G1 X71.44442735304442 Y202.26908136749236 E91.32117
G1 X70.74722006679448 Y202.19412804868657 E91.34449
G1 X70.00617216011099 Y201.9452264617089 E91.37049
G1 X69.42493038597564 Y201.51247711162273 E91.3946
G1 X39.83534002044338 Y171.92288674609046 E92.7864
G0 F1440 X40.15000253807139 Y171.67186383876924
G1 F1080 X39.782307011854385 Y171.09769313244576 E92.80908
G1 X39.56946787071725 Y170.39129345804042 E92.83362
G1 X39.639471442054706 Y169.74853339394184 E92.85512
G1 X39.8551390103166 Y169.10718754340564 E92.87763
G1 X40.21152082803462 Y168.62211229151166 E92.89765
G1 X69.65615430342365 Y139.17747881612263 E94.28263
G1 X70.25436664030747 Y138.78291323222055 E94.30647
G1 X70.95935210115044 Y138.5644172368339 E94.33101
G1 X71.61201166018564 Y138.63442080817137 E94.35285
G1 X72.25335751072184 Y138.85008837643326 E94.37535
G1 X72.7384327626158 Y139.20647019415128 E94.39537
G1 X102.2636764110601 Y168.73171384259558 E95.78415
G1 X102.6582419949622 Y169.3299261794794 E95.80798
G1 X102.87673799034883 Y170.03491164032238 E95.83253
G1 X102.80673441901138 Y170.6875711993576 E95.85436
G1 X102.59106685074948 Y171.3289170498938 E95.87687
G1 X102.23468503303145 Y171.81399230178772 E95.89689
G1 X72.79005155764243 Y201.25862577717677 E97.28187
G1 X72.19183922075861 Y201.65319136107885 E97.30571
G1 X71.48685375991562 Y201.8716873564655 E97.33026
G1 X70.83419420088043 Y201.80168378512803 E97.35209
G1 X70.19284835034424 Y201.58601621686614 E97.37459
G1 X69.70777309845026 Y201.22963439914813 E97.39461
G1 X40.15000253807139 Y171.67186383876924 E98.78492
G0 F1440 X40.4646650556994 Y171.42084093144803
G1 F1080 X40.14788121772782 Y170.92586618461743 E98.80447
G1 X39.97605426989951 Y170.3552310121999 E98.82429
G1 X40.0184806767707 Y169.8758126145554 E98.84029
G1 X40.213642148378185 Y169.29457084042008 E98.86069
G1 X40.49436354050924 Y168.9049550039863 E98.87666
G1 X69.91000563786962 Y139.4893129066259 E100.26028
G1 X70.42619358813579 Y139.14848743809398 E100.28085
G1 X71.00107140124047 Y138.97100363601618 E100.30087
G1 X71.48473243957206 Y139.01343004288736 E100.31701
G1 X72.0659742137074 Y139.20859151449486 E100.33741
G1 X72.4555900501412 Y139.4893129066259 E100.35338
G1 X101.95184232055684 Y168.98556517704154 E101.74079
G1 X102.29266778908877 Y169.50175312730772 E101.76137
G1 X102.47015159116657 Y170.07663094041237 E101.78138
G1 X102.42772518429538 Y170.56029197874398 E101.79752
G1 X102.23256371268789 Y171.14153375287933 E101.81792
G1 X101.95184232055684 Y171.53114958931312 E101.83389
G1 X72.53620022319646 Y200.9467916866735 E103.21751
G1 X72.02001227293027 Y201.28761715520542 E103.23808
G1 X71.44513445982561 Y201.46510095728325 E103.2581
G1 X70.96147342149402 Y201.42267455041204 E103.27424
G1 X70.38023164735867 Y201.22751307880455 E103.29464
G1 X69.99061581092488 Y200.9467916866735 E103.31061
G1 X40.4646650556994 Y171.42084093144803 E104.69942
G0 F1440 X40.74750776817402 Y171.1379982189734
G1 F1080 X40.48870668625975 Y170.7165625773862 E104.71587
G1 X40.3812264555194 Y170.31492592567224 E104.7297
G1 X40.39748991148669 Y170.00309183516896 E104.74008
G1 X40.572852393220955 Y169.47983281709094 E104.75844
G1 X40.777206252983866 Y169.18779771646092 E104.77029
G1 X70.19284835034424 Y139.77215561910054 E106.15391
G1 X70.54428042059395 Y139.5310322067159 E106.16809
G1 X71.04561912845521 Y139.37617582163605 E106.18554
G1 X71.35745321895848 Y139.39243927760333 E106.19593
G1 X71.88071223703653 Y139.5678017593376 E106.21428
G1 X72.17274733766658 Y139.77215561910052 E106.22614
G1 X101.66899960808222 Y169.26840788951614 E107.61355
G1 X101.91012302046684 Y169.6198399597659 E107.62773
G1 X102.0649794055467 Y170.12117866762713 E107.64518
G1 X102.04871594957939 Y170.43301275813042 E107.65556
G1 X101.87335346784513 Y170.95627177620844 E107.67392
G1 X101.66899960808222 Y171.2483068768385 E107.68577
G1 X72.25335751072184 Y200.6639489741989 E109.0694
G1 X71.90192544047213 Y200.9050723865835 E109.08357
G1 X71.40058673261086 Y201.05992877166335 E109.10102
G1 X71.08875264210758 Y201.04366531569605 E109.11141
G1 X70.56549362402956 Y200.8683028339618 E109.12976
G1 X70.2734585233995 Y200.6639489741989 E109.14162
G1 X40.74750776817402 Y171.1379982189734 E110.53043
G0 F1440 X41.06004896545848 Y170.8848539913086
G1 F1080 X70.55630123587412 Y200.38110626172426 E111.91784
G1 X70.78752515332212 Y200.5359626468041 E111.9271
G1 X71.20330394065981 Y200.66041344029296 E111.94153
G1 X71.39917251904849 Y200.65970633351176 E111.94805
G1 X71.68201523152311 Y200.57061087908227 E111.95791
G1 X71.97051479824722 Y200.38110626172426 E111.96939
G1 X101.3861568956076 Y170.96546416436388 E113.35301
G1 X101.54101328068745 Y170.73424024691587 E113.36227
G1 X101.66546407417628 Y170.3184614595782 E113.3767
G1 X101.6647569673951 Y170.12259288118952 E113.38322
G1 X101.5756615129656 Y169.8397501687149 E113.39308
G1 X101.3861568956076 Y169.55125060199077 E113.40456
G1 X71.88990462519195 Y140.05499833157512 E114.79197
G1 X71.65868070774395 Y139.9001419464953 E114.80123
G1 X71.24290192040625 Y139.77569115300645 E114.81567
G1 X71.0470333420176 Y139.77639825978764 E114.82218
G1 X70.76419062954298 Y139.86549371421717 E114.83204
G1 X70.47569106281885 Y140.05499833157512 E114.84352
G1 X41.06004896545848 Y169.4706404289355 E116.22715
G1 X40.905192580378625 Y169.7018643463835 E116.2364
G1 X40.7807417868898 Y170.1176431337212 E116.25084
G1 X40.78144889367098 Y170.3135117121099 E116.25735
G1 X40.87054434810049 Y170.5963544245845 E116.26721
G1 X41.06004896545848 Y170.8848539913086 E116.27869
G0 F1440 X41.625734390407715 Y170.3191685663594
G1 F1080 X41.56916584791279 Y170.2074456949319 E116.28286
G1 X41.625734390407715 Y170.03632585388476 E116.28885
G1 X71.04137648776809 Y140.6206837565244 E117.67248
G1 X71.15309935919556 Y140.56411521402947 E117.67664
G1 X71.32421920024271 Y140.6206837565244 E117.68264
G1 X100.82047147065836 Y170.11693602694004 E119.07005
G1 X100.87704001315328 Y170.22865889836748 E119.07421
G1 X100.82047147065836 Y170.39977873941464 E119.08021
G1 X71.40482937329799 Y199.81542083677502 E120.46383
G1 X71.29310650187051 Y199.87198937926993 E120.468
G1 X71.12198666082335 Y199.81542083677502 E120.47399
G1 X41.625734390407715 Y170.3191685663594 E121.8614
G0 F1440 X41.342891677933096 Y170.602011278834
G1 F1080 X41.21207692341358 Y170.38775792413446 E121.86975
G1 X41.1689434097612 Y170.21593097630614 E121.87564
G1 X41.24601804891053 Y169.91116795361472 E121.8861
G1 X41.3428916779331 Y169.75348314141013 E121.89226
G1 X70.75853377529347 Y140.33784104404975 E123.27588
G1 X70.972787129993 Y140.20702628953023 E123.28423
G1 X71.14461407782133 Y140.16389277587786 E123.29012
G1 X71.44937710051273 Y140.2409674150272 E123.30057
G1 X71.60706191271733 Y140.33784104404975 E123.30673
G1 X101.10331418313297 Y169.8340933144654 E124.69414
G1 X101.23412893765249 Y170.0483466691649 E124.70249
G1 X101.27726245130486 Y170.22017361699324 E124.70838
G1 X101.20018781215552 Y170.52493663968465 E124.71884
G1 X101.10331418313298 Y170.68262145188925 E124.725
G1 X71.6876720857726 Y200.09826354924965 E126.10862
G1 X71.47341873107308 Y200.22907830376914 E126.11697
G1 X71.30159178324475 Y200.27221181742152 E126.12286
G1 X70.99682876055334 Y200.1951371782722 E126.13331
G1 X70.83914394834873 Y200.09826354924965 E126.13947
G1 X41.342891677933096 Y170.602011278834 E127.52688
G1 F3600 E122.52688
; MESH:Print_test_with_casting v1.stl 1
G0 F1440 X42.36678229709121 Y170.17774721012208
G0 X71.26128669671711 Y198.25766459782105
; TYPE:WALL-INNER
G1 F3600 E127.52688
G1 F1080 X99.26271523170439 Y170.25623606283375 E128.84398
G1 X71.18209073722423 Y142.1756115683536 E130.16481
G1 X43.18066220223694 Y170.1770401033409 E131.48191
G1 X71.26128669671711 Y198.25766459782105 E132.80274
G0 F1440 X71.26128669671711 Y198.8233500227703
G1 F1080 X99.82840065665363 Y170.25623606283378 E134.14645
G1 X71.18209073722423 Y141.60992614340435 E135.49388
G1 X42.614976777287694 Y170.1770401033409 E136.83759
G1 X71.26128669671711 Y198.8233500227703 E138.18503
G0 F1440 X71.26128669671712 Y199.38903544771952
; TYPE:WALL-OUTER
G1 F900 X100.39408608160288 Y170.25623606283378 E139.55534
G1 X71.18209073722421 Y141.04424071845511 E140.92939
G1 X42.049291352338464 Y170.17704010334086 E142.2997
G1 X71.26128669671712 Y199.38903544771952 E143.67375
G0 F1440 X71.40270805295442 Y199.24761409148223
G0 X71.26340801706067 Y198.4294915456494
G0 X98.80026739680841 Y170.0483466691649
; TYPE:SKIN
G1 F1080 X98.8002673968084 Y170.46412545650261 E143.68758
G0 F1440 X98.4000449586568 Y170.8643478946542
G1 F1080 X98.4000449586568 Y169.64812423101336 E143.72803
G0 F1440 X97.99982252050522 Y169.24790179286174
G1 F1080 X98.0005296272864 Y171.26386322602463 E143.79508
G0 F1440 X97.60030718913481 Y171.66408566417618
G1 F1080 X97.60030718913482 Y168.84838646149137 E143.88873
G0 F1440 X97.20008475098324 Y168.44816402333976
G1 F1080 X97.20008475098324 Y172.06430810232777 E144.009
G0 F1440 X96.79986231283165 Y172.46453054047936
G1 F1080 X96.79986231283165 Y168.0479415851882 E144.1559
G0 F1440 X96.39963987468006 Y167.64771914703658
G1 F1080 X96.40034698146125 Y172.86404587184975 E144.32939
G0 F1440 X96.00012454330967 Y173.26426831000134
G1 F1080 X96.00012454330967 Y167.24820381566622 E144.52949
G0 F1440 X95.59990210515807 Y166.8479813775146
G1 F1080 X95.59990210515808 Y173.66449074815293 E144.75621
G0 F1440 X95.20038677378767 Y174.06400607952332
G1 F1080 X95.1996796670065 Y166.44775893936304 E145.00953
G0 F1440 X94.80016433563608 Y166.04824360799262
G1 F1080 X94.80016433563608 Y174.46422851767494 E145.28944
G0 F1440 X94.39994189748451 Y174.8644509558265
G1 F1080 X94.39994189748451 Y165.64802116984106 E145.59598
G0 F1440 X93.99971945933292 Y165.24779873168944
G1 F1080 X94.0004265661141 Y175.26396628719692 E145.92912
G0 F1440 X93.60020412796251 Y175.66418872534848
G1 F1080 X93.60020412796253 Y164.84828340031908 E146.28886
G0 F1440 X93.19998168981094 Y164.44806096216746
G1 F1080 X93.19998168981093 Y176.0644111635001 E146.67522
G0 F1440 X92.80046635844053 Y176.46392649487046
G1 F1080 X92.79975925165935 Y164.0478385240159 E147.08818
G0 F1440 X92.40024392028896 Y163.64832319264548
G1 F1080 X92.40024392028894 Y176.86414893302208 E147.52774
G0 F1440 X92.00002148213737 Y177.26437137117364
G1 F1080 X92.00002148213736 Y163.24810075449392 E147.99392
G0 F1440 X91.59979904398577 Y162.8478783163423
G1 F1080 X91.60050615076696 Y177.66388670254406 E148.48671
G0 F1440 X91.20028371261537 Y178.06410914069562
G1 F1080 X91.20028371261537 Y162.44836298497194 E149.00609
G0 F1440 X90.80006127446379 Y162.04814054682032
G1 F1080 X90.80006127446379 Y178.4643315788472 E149.55209
G0 F1440 X90.40054594309339 Y178.8638469102176
G1 F1080 X90.3998388363122 Y161.64791810866873 E150.1247
G0 F1440 X89.99961639816061 Y161.24769567051715
G1 F1080 X90.0003235049418 Y179.2640693483692 E150.72392
G0 F1440 X89.60010106679022 Y179.66429178652078
G1 F1080 X89.60010106679022 Y160.84818033914675 E151.34975
G0 F1440 X89.19987862863863 Y160.44795790099516
G1 F1080 X89.19987862863863 Y180.06451422467237 E152.0022
G0 F1440 X88.80036329726823 Y180.4640295560428
G1 F1080 X88.79965619048706 Y160.0477354628436 E152.68125
G0 F1440 X88.40014085911665 Y159.64822013147318
G1 F1080 X88.40014085911665 Y180.86425199419438 E153.3869
G0 F1440 X87.99991842096506 Y181.26447443234593
G1 F1080 X87.99991842096506 Y159.24799769332162 E154.11917
G0 F1440 X87.59969598281347 Y158.84777525517
G1 F1080 X87.60040308959466 Y181.66398976371636 E154.87804
G0 F1440 X87.20018065144308 Y182.06421220186792
G1 F1080 X87.20018065144308 Y158.4482599237996 E155.66351
G0 F1440 X86.79995821329149 Y158.04803748564802
G1 F1080 X86.79995821329149 Y182.4644346400195 E156.4756
G0 F1440 X86.4004428819211 Y182.8639499713899
G1 F1080 X86.3997357751399 Y157.64781504749644 E157.31429
G0 F1440 X86.0002204437695 Y157.24829971612604
G1 F1080 X86.0002204437695 Y183.2641724095415 E158.17958
G0 F1440 X85.59999800561792 Y183.66439484769307
G1 F1080 X85.59999800561792 Y156.84807727797445 E159.0715
G0 F1440 X85.19977556746633 Y156.44785483982287
G1 F1080 X85.20048267424752 Y184.0639101790635 E159.99001
G0 F1440 X84.80026023609594 Y184.46413261721509
G1 F1080 X84.80026023609594 Y156.04833950845247 E160.93513
G0 F1440 X84.40003779794435 Y155.64811707030088
G1 F1080 X84.40003779794435 Y184.86435505536667 E161.90686
G0 F1440 X84.00052246657395 Y185.26387038673707
G1 F1080 X83.99981535979276 Y155.2478946321493 E162.9052
G0 F1440 X83.60030002842237 Y154.8483793007789
G1 F1080 X83.60030002842237 Y185.66409282488866 E163.93013
G0 F1440 X83.20007759027078 Y186.06431526304024
G1 F1080 X83.20007759027078 Y154.44815686262731 E164.98169
G0 F1440 X82.79985515211919 Y154.04793442447573
G1 F1080 X82.79985515211919 Y186.46453770119183 E166.05987
G0 F1440 X82.4003398207488 Y186.86405303256223
G1 F1080 X82.3996327139676 Y153.64771198632414 E167.16465
G0 F1440 X82.00011738259721 Y153.24819665495374
G1 F1080 X82.00011738259721 Y187.2642754707138 E168.29603
G0 F1440 X81.59989494444562 Y187.6644979088654
G1 F1080 X81.59989494444562 Y152.84797421680216 E169.45403
G0 F1440 X81.19967250629404 Y152.44775177865057
G1 F1080 X81.20037961307523 Y188.0640132402358 E170.63863
G0 F1440 X80.80015717492364 Y188.46423567838738
G1 F1080 X80.80015717492364 Y152.04823644728017 E171.84983
G0 F1440 X80.39993473677205 Y151.6480140091286
G1 F1080 X80.39993473677205 Y188.86445811653897 E173.08766
G0 F1440 X80.00041940540166 Y189.26397344790936
G1 F1080 X79.99971229862047 Y151.247791570977 E174.35208
G0 F1440 X79.60019696725007 Y150.8482762396066
G1 F1080 X79.60019696725007 Y189.66419588606095 E175.6431
G0 F1440 X79.19997452909848 Y190.06441832421254
G1 F1080 X79.19997452909848 Y150.44805380145502 E176.96075
G0 F1440 X78.7997520909469 Y150.04783136330343
G1 F1080 X78.80045919772809 Y190.46393365558293 E178.305
G0 F1440 X78.4002367595765 Y190.86415609373452
G1 F1080 X78.4002367595765 Y149.64831603193304 E179.67584
G0 F1440 X78.00001432142491 Y149.24809359378145
G1 F1080 X78.00001432142491 Y191.2643785318861 E181.07331
G0 F1440 X77.60049899005452 Y191.6638938632565
G1 F1080 X77.59979188327333 Y148.84787115562986 E182.49737
G0 F1440 X77.20027655190292 Y148.44835582425947
G1 F1080 X77.20027655190293 Y192.0641163014081 E183.94804
G0 F1440 X76.80005411375134 Y192.46433873955968
G1 F1080 X76.80005411375134 Y148.04813338610788 E185.42533
G0 F1440 X76.39983167559976 Y147.6479109479563
G1 F1080 X76.40053878238093 Y192.86385407093007 E186.92922
G0 F1440 X76.00031634422935 Y193.26407650908166
G1 F1080 X75.99960923744817 Y147.2476885098047 E188.45973
G0 F1440 X75.60009390607777 Y146.8481731784343
G1 F1080 X75.60009390607777 Y193.66429894723325 E190.01684
G0 F1440 X75.19987146792619 Y194.06452138538484
G1 F1080 X75.19987146792619 Y146.44795074028272 E191.60057
G0 F1440 X74.7996490297746 Y146.04772830213113
G1 F1080 X74.80035613655579 Y194.46403671675523 E193.21091
G0 F1440 X74.4001336984042 Y194.86425915490682
G1 F1080 X74.4001336984042 Y145.6482129707607 E194.84784
G0 F1440 X73.99991126025262 Y145.24799053260915
G1 F1080 X73.99991126025262 Y195.2644815930584 E196.51139
G0 F1440 X73.60039592888222 Y195.6639969244288
G1 F1080 X73.59968882210103 Y144.84776809445754 E198.20155
G0 F1440 X73.20017349073062 Y144.44825276308717
G1 F1080 X73.20017349073063 Y196.0642193625804 E199.9183
G0 F1440 X72.79995105257905 Y196.46444180073198
G1 F1080 X72.79995105257903 Y144.04803032493555 E201.66168
G0 F1440 X72.39972861442746 Y143.647807886784
G1 F1080 X72.40043572120864 Y196.86395713210237 E203.43166
G0 F1440 X72.00021328305705 Y197.26417957025396
G1 F1080 X72.00021328305705 Y143.24829255541357 E205.22823
G0 F1440 X71.59999084490548 Y142.848070117262
G1 F1080 X71.59999084490546 Y197.66440200840555 E207.05143
G0 F1440 X71.19976840675388 Y197.94158786663067
G1 F1080 X71.19976840675389 Y142.44784767911042 E208.89716
G0 F1440 X70.80025307538348 Y142.8120076714215
G1 F1080 X70.80025307538348 Y197.54207253526027 E210.71749
G0 F1440 X70.4000306372319 Y197.1418500971087
G1 F1080 X70.4000306372319 Y143.21223010957306 E212.51119
G0 F1440 X69.9998081990803 Y143.61245254772467
G1 F1080 X69.9998081990803 Y196.7416276589571 E214.27828
G0 F1440 X69.60029286770991 Y196.3421123275867
G1 F1080 X69.60029286770991 Y144.01196787909504 E216.01879
G0 F1440 X69.20007042955832 Y144.41219031724665
G1 F1080 X69.20007042955832 Y195.94188988943512 E217.73267
G0 F1440 X68.79984799140674 Y195.54166745128353
G1 F1080 X68.79984799140674 Y144.8124127553982 E219.41993
G0 F1440 X68.40033266003634 Y145.21192808676864
G1 F1080 X68.40033266003633 Y195.14215211991313 E221.08062
G0 F1440 X68.00011022188474 Y194.74192968176155
G1 F1080 X68.00011022188475 Y145.61215052492022 E222.71468
G0 F1440 X67.59988778373317 Y146.0123729630718
G1 F1080 X67.59988778373317 Y194.34170724360996 E224.32212
G0 F1440 X67.20037245236276 Y193.94219191223956
G1 F1080 X67.20037245236277 Y146.4118882944422 E225.90299
G0 F1440 X66.80015001421118 Y146.8121107325938
G1 F1080 X66.80015001421118 Y193.54196947408798 E227.45723
G0 F1440 X66.3999275760596 Y193.1417470359364
G1 F1080 X66.3999275760596 Y147.21233317074535 E228.98485
G0 F1440 X66.0004122446892 Y147.61184850211578
G1 F1080 X66.0004122446892 Y192.742231704566 E230.48589
G0 F1440 X65.60018980653761 Y192.3420092664144
G1 F1080 X65.60018980653761 Y148.01207094026736 E231.96031
G0 F1440 X65.19996736838603 Y148.41229337841895
G1 F1080 X65.19996736838603 Y191.94178682826282 E233.40811
G0 F1440 X64.79974493023444 Y191.54156439011123
G1 F1080 X64.80045203701563 Y148.81180870978935 E234.8293
G0 F1440 X64.40022959886404 Y149.21203114794093
G1 F1080 X64.40022959886403 Y191.14204905874084 E236.2239
G0 F1440 X64.00000716071244 Y190.74182662058925
G1 F1080 X64.00000716071246 Y149.61225358609252 E237.59188
G0 F1440 X63.59978472256087 Y150.0124760242441
G1 F1080 X63.59978472256086 Y190.34160418243766 E238.93323
G0 F1440 X63.20026939119046 Y189.94208885106727
G1 F1080 X63.200269391190474 Y150.4119913556145 E240.248
G0 F1440 X62.80004695303889 Y150.8122137937661
G1 F1080 X62.80004695303887 Y189.54186641291568 E241.53616
G0 F1440 X62.3998245148873 Y189.1416439747641
G1 F1080 X62.3998245148873 Y151.21243623191765 E242.79769
G0 F1440 X62.00030918351689 Y151.61195156328807
G1 F1080 X62.00030918351689 Y188.7421286433937 E244.03264
G0 F1440 X61.60008674536532 Y188.3419062052421
G1 F1080 X61.60008674536532 Y152.01217400143966 E245.24097
G0 F1440 X61.19986430721373 Y152.41239643959125
G1 F1080 X61.19986430721373 Y187.94168376709052 E246.42268
G0 F1440 X60.80034897584333 Y187.54216843572013
G1 F1080 X60.800348975843335 Y152.81191177096164 E247.57782
G0 F1440 X60.40012653769175 Y153.21213420911323
G1 F1080 X60.40012653769174 Y187.14194599756854 E248.70633
G0 F1440 X59.99990409954015 Y186.74172355941695
G1 F1080 X59.99990409954016 Y153.61235664726482 E249.80821
G0 F1440 X59.60038876816975 Y154.0118719786352
G1 F1080 X59.60038876816975 Y186.34220822804656 E250.88353
G0 F1440 X59.20016633001816 Y185.94198578989497
G1 F1080 X59.20016633001816 Y154.4120944167868 E251.93221
G0 F1440 X58.799943891866576 Y154.8123168549384
G1 F1080 X58.799943891866576 Y185.54176335174338 E252.95428
G0 F1440 X58.40042856049618 Y185.142248020373
G1 F1080 X58.40042856049618 Y155.21183218630878 E253.94977
G0 F1440 X58.00020612234459 Y155.61205462446037
G1 F1080 X58.00020612234459 Y184.7420255822214 E254.91864
G0 F1440 X57.599983684193006 Y184.34180314406981
G1 F1080 X57.59998368419301 Y156.01227706261196 E255.86088
G0 F1440 X57.200468352822604 Y156.41179239398235
G1 F1080 X57.199761246041426 Y183.94158070591823 E256.77652
G0 F1440 X56.800245914671024 Y183.5420653745478
G1 F1080 X56.80024591467103 Y156.81201483213394 E257.66557
G0 F1440 X56.40002347651944 Y157.21223727028553
G1 F1080 X56.40002347651944 Y183.14184293639624 E258.52799
G0 F1440 X55.999801038367856 Y182.74162049824466
G1 F1080 X55.999801038367856 Y157.61245970843711 E259.36379
G0 F1440 X55.600285706997454 Y158.0119750398075
G1 F1080 X55.600285706997454 Y182.34210516687426 E260.17301
G0 F1440 X55.20006326884587 Y181.94188272872267
G1 F1080 X55.20006326884587 Y158.4121974779591 E260.95561
G0 F1440 X54.79984083069428 Y158.81241991611068
G1 F1080 X54.79984083069428 Y181.5416602905711 E261.71159
G0 F1440 X54.400325499323884 Y181.1421449592007
G1 F1080 X54.400325499323884 Y159.21193524748108 E262.44099
G0 F1440 X54.0001030611723 Y159.61215768563267
G1 F1080 X54.0001030611723 Y180.7419225210491 E263.14377
G0 F1440 X53.59988062302071 Y180.3417000828975
G1 F1080 X53.59988062302071 Y160.01238012378425 E263.81993
G0 F1440 X53.20036529165031 Y160.41189545515465
G1 F1080 X53.200365291650314 Y179.9421847515271 E264.46951
G0 F1440 X52.80014285349873 Y179.5419623133755
G1 F1080 X52.80014285349872 Y160.81211789330627 E265.09247
G0 F1440 X52.39992041534715 Y161.21234033145782
G1 F1080 X52.39992041534714 Y179.14173987522392 E265.6888
G0 F1440 X52.00040508397674 Y178.74222454385352
G1 F1080 X52.00040508397674 Y161.61185566282825 E266.25856
G0 F1440 X51.60018264582516 Y162.0120781009798
G1 F1080 X51.60018264582515 Y178.34200210570194 E266.80169
G0 F1440 X51.19996020767356 Y177.94177966755035
G1 F1080 X51.19996020767357 Y162.4123005391314 E267.31821
G0 F1440 X50.800444876303175 Y162.8118158705018
G1 F1080 X50.79973776952198 Y177.5415572293988 E267.80812
G0 F1440 X50.40022243815159 Y177.14204189802837
G1 F1080 X50.40022243815159 Y163.21203830865338 E268.27143
G0 F1440 X50.0 Y163.61226074680496
G1 F1080 X50.0 Y176.7418194598768 E268.70812
G0 F1440 X49.59977756184841 Y176.3415970217252
G1 F1080 X49.59977756184841 Y164.01248318495655 E269.11819
G0 F1440 X49.20026223047801 Y164.41199851632695
G1 F1080 X49.20026223047802 Y175.94208169035483 E269.50168
G0 F1440 X48.80003979232643 Y175.5418592522032
G1 F1080 X48.80003979232642 Y164.81222095447856 E269.85855
G0 F1440 X48.399817354174836 Y165.21244339263012
G1 F1080 X48.399817354174836 Y175.14163681405165 E270.1888
G0 F1440 X48.00030202280444 Y174.74212148268123
G1 F1080 X48.00030202280444 Y165.61195872400054 E270.49247
G0 F1440 X47.60007958465285 Y166.0121811621521
G1 F1080 X47.60007958465285 Y174.34189904452967 E270.76952
G0 F1440 X47.199857146501266 Y173.94167660637805
G1 F1080 X47.199857146501266 Y166.41240360030372 E271.01994
G0 F1440 X46.800341815130864 Y166.8119189316741
G1 F1080 X46.80034181513087 Y173.54216127500766 E271.24379
G0 F1440 X46.40011937697928 Y173.14193883685607
G1 F1080 X46.400119376979276 Y167.2121413698257 E271.44102
G0 F1440 X45.9998969388277 Y167.61236380797726
G1 F1080 X45.99989693882769 Y172.74171639870448 E271.61162
G0 F1440 X45.600381607457294 Y172.3422010673341
G1 F1080 X45.600381607457294 Y168.01187913934768 E271.75565
G0 F1440 X45.200159169305714 Y168.41210157749924
G1 F1080 X45.20015916930571 Y171.9419786291825 E271.87305
G0 F1440 X44.799936731154126 Y171.5417561910309
G1 F1080 X44.799936731154126 Y168.81232401565086 E271.96383
G0 F1440 X44.40042139978373 Y169.21183934702123
G1 F1080 X44.400421399783724 Y171.14224085966052 E272.02804
G0 F1440 X44.000198961632144 Y170.74201842150893
G1 F1080 X44.000198961632144 Y169.61206178517284 E272.06562
G0 F1440 X43.59997652348056 Y170.0122842233244
G1 F1080 X43.59997652348056 Y170.34179598335734 E272.07658
G0 F1440 X43.62118972691616 Y170.32058277992175
M104 S235
; MESH:NONMESH
G0 F600 X43.62118972691616 Y170.32058277992175 Z0.4
G0 F1440 X71.26128669671711 Y198.25766459782105
; TIME_ELAPSED:472.705100
; LAYER:1
M106 S255
; TYPE:WALL-INNER
; MESH:Print_test_with_casting v1.stl 1
G1 F1140 X99.26271523170439 Y170.25623606283375 E273.39368
G1 X71.18209073722423 Y142.1756115683536 E274.71451
G1 X43.18066220223694 Y170.1770401033409 E276.03161
G1 X71.26128669671711 Y198.25766459782105 E277.35244
G0 F2820 X71.26128669671711 Y198.8233500227703
G1 F1140 X99.82840065665363 Y170.25623606283378 E278.69615
G1 X71.18209073722423 Y141.60992614340435 E280.04358
G1 X42.614976777287694 Y170.1770401033409 E281.38729
G1 X71.26128669671711 Y198.8233500227703 E282.73472
G0 F2820 X71.26128669671712 Y199.38903544771952
; TYPE:WALL-OUTER
G1 F900 X100.39408608160288 Y170.25623606283378 E284.10504
G1 X71.18209073722421 Y141.04424071845511 E285.47908
G1 X42.049291352338464 Y170.17704010334086 E286.8494
G1 X71.26128669671712 Y199.38903544771952 E288.22344
G0 F2820 X71.40270805295442 Y199.24761409148223
G0 X71.26340801706067 Y198.4294915456494
G0 X70.85823583144077 Y197.60005529131757
; TYPE:SKIN
G1 F1290 X71.66433756199345 Y197.60005529131757 E288.25026
G0 F2820 X72.06385289336384 Y197.20053995994718
G1 F1290 X70.45801339328919 Y197.199832853166 E288.30367
G0 F2820 X70.0577909551376 Y196.7996104150144
G1 F1290 X72.46407533151543 Y196.8003175217956 E288.3837
G0 F2820 X72.86429776966702 Y196.400095083644
G1 F1290 X69.65827562376721 Y196.400095083644 E288.49033
G0 F2820 X69.25805318561562 Y195.99987264549242
G1 F1290 X73.2645202078186 Y195.99987264549242 E288.62359
G0 F2820 X73.664035539189 Y195.60035731412202
G1 F1290 X68.85783074746404 Y195.59965020734083 E288.78344
G0 F2820 X68.45831541609364 Y195.20013487597043
G1 F1290 X74.06425797734059 Y195.20013487597043 E288.9699
G0 F2820 X74.46448041549218 Y194.79991243781885
G1 F1290 X68.05809297794205 Y194.79991243781885 E289.18297
G0 F2820 X67.65787053979047 Y194.39968999966726
G1 F1290 X74.86399574686257 Y194.40039710644845 E289.42265
G0 F2820 X75.26421818501416 Y194.00017466829686
G1 F1290 X67.25835520842006 Y194.00017466829686 E289.68893
G0 F2820 X66.85813277026847 Y193.59995223014528
G1 F1290 X75.66444062316575 Y193.59995223014528 E289.98183
G0 F2820 X76.06395595453614 Y193.20043689877488
G1 F1290 X66.45791033211688 Y193.1997297919937 E290.30133
G0 F2820 X66.05839500074649 Y192.8002144606233
G1 F1290 X76.46417839268773 Y192.8002144606233 E290.64742
G0 F2820 X76.86440083083932 Y192.3999920224717
G1 F1290 X65.6581725625949 Y192.3999920224717 E291.02014
G0 F2820 X65.25795012444331 Y191.99976958432012
G1 F1290 X77.26391616220971 Y192.0004766911013 E291.41946
G0 F2820 X77.6641386003613 Y191.60025425294972
G1 F1290 X64.85843479307292 Y191.60025425294972 E291.84538
G0 F2820 X64.45821235492133 Y191.20003181479814
G1 F1290 X78.06436103851289 Y191.20003181479814 E292.29793
G0 F2820 X78.4638763698833 Y190.8005164834277
G1 F1290 X64.05798991676976 Y190.79980937664655 E292.77707
G0 F2820 X63.65776747861817 Y190.39958693849496
G1 F1290 X78.86409880803488 Y190.40029404527613 E293.28283
G0 F2820 X79.26432124618646 Y190.00007160712457
G1 F1290 X63.25825214724777 Y190.00007160712457 E293.8152
G0 F2820 X62.85802970909618 Y189.59984916897298
G1 F1290 X79.66454368433804 Y189.59984916897298 E294.37418
G0 F2820 X80.06405901570844 Y189.20033383760259
G1 F1290 X62.45780727094459 Y189.1996267308214 E294.95977
G0 F2820 X62.05829193957419 Y188.800111399451
G1 F1290 X80.46428145386002 Y188.800111399451 E295.57195
G0 F2820 X80.86450389201161 Y188.3998889612994
G1 F1290 X61.6580695014226 Y188.3998889612994 E296.21076
G0 F2820 X61.257847063271015 Y187.99966652314782
G1 F1290 X81.26401922338201 Y188.00037362992902 E296.87617
G0 F2820 X81.6642416615336 Y187.60015119177743
G1 F1290 X60.85833173190062 Y187.60015119177743 E297.56818
G0 F2820 X60.45810929374903 Y187.19992875362584
G1 F1290 X82.06446409968518 Y187.19992875362584 E298.28681
G0 F2820 X82.46397943105558 Y186.80041342225542
G1 F1290 X60.057886855597445 Y186.79970631547422 E299.03204
G0 F2820 X59.65837152422705 Y186.40019098410383
G1 F1290 X82.86420186920716 Y186.40019098410383 E299.80387
G0 F2820 X83.26442430735875 Y185.99996854595224
G1 F1290 X59.25814908607546 Y185.99996854595224 E300.60232
G0 F2820 X58.85792664792388 Y185.59974610780068
G1 F1290 X83.66393963872915 Y185.60045321458185 E301.42737
G0 F2820 X84.06416207688073 Y185.20023077643026
G1 F1290 X58.45841131655347 Y185.20023077643026 E302.27902
G0 F2820 X58.05818887840189 Y184.8000083382787
G1 F1290 X84.46438451503232 Y184.80000833827867 E303.1573
G0 F2820 X84.86389984640273 Y184.40049300690828
G1 F1290 X57.657966440250306 Y184.3997859001271 E304.06217
G0 F2820 X57.25774400209872 Y183.99956346197553
G1 F1290 X85.26412228455432 Y184.0002705687567 E304.99366
G0 F2820 X85.66434472270589 Y183.60004813060513
G1 F1290 X56.85822867072832 Y183.60004813060513 E305.95176
G0 F2820 X56.458006232576736 Y183.19982569245352
G1 F1290 X86.06386005407629 Y183.2005327992347 E306.93645
G0 F2820 X86.46408249222787 Y182.80031036108312
G1 F1290 X56.05778379442515 Y182.79960325430193 E307.94777
G0 F2820 X55.65826846305475 Y182.40008792293153
G1 F1290 X86.86430493037946 Y182.40008792293153 E308.98569
G0 F2820 X87.26452736853105 Y181.99986548477995
G1 F1290 X55.258046024903166 Y181.99986548477995 E310.05023
G0 F2820 X54.85782358675158 Y181.59964304662836
G1 F1290 X87.66404269990144 Y181.60035015340955 E311.14137
G0 F2820 X88.06426513805303 Y181.20012771525796
G1 F1290 X54.458308255381176 Y181.20012771525796 E312.25911
G0 F2820 X54.05808581722959 Y180.79990527710638
G1 F1290 X88.46448757620462 Y180.79990527710638 E313.40347
G0 F2820 X88.86400290757503 Y180.40038994573598
G1 F1290 X53.65786337907801 Y180.39968283895482 E314.57443
G0 F2820 X53.25834804770761 Y180.0001675075844
G1 F1290 X89.26422534572662 Y180.0001675075844 E315.77199
G0 F2820 X89.66444778387819 Y179.5999450694328
G1 F1290 X52.858125609556026 Y179.5999450694328 E316.99617
G0 F2820 X52.45790317140444 Y179.19972263128122
G1 F1290 X90.0639631152486 Y179.2004297380624 E318.24696
G0 F2820 X90.46418555340018 Y178.80020729991082
G1 F1290 X52.058387840034044 Y178.80020729991082 E319.52434
G0 F2820 X51.65816540188246 Y178.39998486175924
G1 F1290 X90.86440799155177 Y178.39998486175924 E320.82834
G0 F2820 X91.26392332292217 Y178.00046953038884
G1 F1290 X51.25794296373086 Y177.99976242360765 E322.15895
G0 F2820 X50.85842763236047 Y177.60024709223728
G1 F1290 X91.66414576107375 Y177.60024709223725 E323.51615
G0 F2820 X92.06436819922533 Y177.20002465408567
G1 F1290 X50.45820519420888 Y177.20002465408567 E324.89998
G0 F2820 X50.05798275605729 Y176.79980221593408
G1 F1290 X92.46388353059575 Y176.80050932271527 E326.3104
G0 F2820 X92.86410596874732 Y176.40028688456368
G1 F1290 X49.657760317905705 Y176.3995797777825 E327.74745
G0 F2820 X49.25824498653531 Y176.0000644464121
G1 F1290 X93.26432840689891 Y176.0000644464121 E329.2111
G0 F2820 X93.6638437382693 Y175.6005491150417
G1 F1290 X48.858022548383715 Y175.5998420082605 E330.70135
G0 F2820 X48.45780011023213 Y175.19961957010892
G1 F1290 X94.0640661764209 Y175.2003266768901 E332.21822
G0 F2820 X94.46428861457248 Y174.80010423873853
G1 F1290 X48.05828477886173 Y174.80010423873853 E333.76169
G0 F2820 X47.65806234071015 Y174.39988180058697
G1 F1290 X94.86451105272407 Y174.39988180058694 E335.33178
G0 F2820 X95.26402638409448 Y174.00036646921654
G1 F1290 X47.257839902558565 Y173.99965936243535 E336.92847
G0 F2820 X46.85832457118817 Y173.60014403106499
G1 F1290 X95.66424882224605 Y173.60014403106496 E338.55176
G0 F2820 X96.06447126039764 Y173.19992159291337
G1 F1290 X46.45810213303658 Y173.19992159291337 E340.20168
G0 F2820 X46.057879694884996 Y172.79969915476178
G1 F1290 X96.46398659176805 Y172.80040626154297 E341.87819
G0 F2820 X96.86420902991964 Y172.4001838233914
G1 F1290 X45.65836436351459 Y172.4001838233914 E343.58131
G0 F2820 X45.258141925363006 Y171.9999613852398
G1 F1290 X97.26443146807122 Y171.9999613852398 E345.31104
G0 F2820 X97.66394679944162 Y171.6004460538694
G1 F1290 X44.85791948721142 Y171.5997389470882 E347.06738
G0 F2820 X44.45840415584102 Y171.20022361571782
G1 F1290 X98.06416923759319 Y171.20022361571782 E348.85031
G0 F2820 X98.46439167574478 Y170.80000117756623
G1 F1290 X44.058181717689436 Y170.80000117756623 E350.65987
G0 F2820 X43.65795927953785 Y170.39977873941464
G1 F1290 X98.86390700711519 Y170.40048584619583 E352.49603
G0 F2820 X98.75218413568771 Y170.00026340804425
G1 F1290 X43.61199733876072 Y170.00026340804425 E354.33
G0 F2820 X44.01221977691231 Y169.60004096989266
G1 F1290 X98.35196169753613 Y169.60004096989266 E356.13735
G0 F2820 X97.95173925938454 Y169.19981853174107
G1 F1290 X44.4124422150639 Y169.19981853174107 E357.91807
G0 F2820 X44.81195754643429 Y168.80030320037068
G1 F1290 X97.55222392801414 Y168.80030320037068 E359.67222
G0 F2820 X97.15200148986256 Y168.4000807622191
G1 F1290 X45.21217998458588 Y168.4000807622191 E361.39974
G0 F2820 X45.61240242273747 Y167.9998583240675
G1 F1290 X96.75177905171097 Y167.9998583240675 E363.10065
G0 F2820 X96.35226372034057 Y167.6003429926971
G1 F1290 X46.01191775410787 Y167.6003429926971 E364.77497
G0 F2820 X46.41214019225946 Y167.2001205545455
G1 F1290 X95.95204128218899 Y167.20012055454552 E366.42268
G0 F2820 X95.5518188440374 Y166.79989811639393
G1 F1290 X46.812362630411045 Y166.79989811639393 E368.04376
G0 F2820 X47.21187796178144 Y166.4003827850235
G1 F1290 X95.152303512667 Y166.4003827850235 E369.63826
G0 F2820 X94.75208107451542 Y166.00016034687195
G1 F1290 X47.61210039993303 Y166.00016034687195 E371.20615
G0 F2820 X48.01232283808461 Y165.59993790872036
G1 F1290 X94.35185863636383 Y165.59993790872034 E372.7474
G0 F2820 X93.95163619821224 Y165.19971547056878
G1 F1290 X48.41183816945502 Y165.20042257734997 E374.26206
G0 F2820 X48.81206060760659 Y164.80020013919838
G1 F1290 X93.55212086684183 Y164.80020013919835 E375.75012
G0 F2820 X93.15189842869026 Y164.3999777010468
G1 F1290 X49.21228304575818 Y164.3999777010468 E377.21156
G0 F2820 X49.61179837712858 Y164.00046236967637
G1 F1290 X92.75167599053867 Y163.9997552628952 E378.6464
G0 F2820 X92.35216065916828 Y163.6002399315248
G1 F1290 X50.01202081528017 Y163.6002399315248 E380.05464
G0 F2820 X50.412243253431754 Y163.2000174933732
G1 F1290 X91.95193822101669 Y163.20001749337322 E381.43625
G0 F2820 X91.5517157828651 Y162.79979505522164
G1 F1290 X50.81246569158334 Y162.79979505522164 E382.79125
G0 F2820 X51.211981022953736 Y162.4002797238512
G1 F1290 X91.1522004514947 Y162.4002797238512 E384.11967
G0 F2820 X90.75197801334312 Y162.00005728569965
G1 F1290 X51.612203461105324 Y162.00005728569965 E385.42146
G0 F2820 X52.01242589925691 Y161.59983484754804
G1 F1290 X90.35175557519153 Y161.59983484754804 E386.69663
G0 F2820 X89.95224024382112 Y161.20031951617767
G1 F1290 X52.41194123062731 Y161.20031951617767 E387.94523
G0 F2820 X52.8121636687789 Y160.80009707802606
G1 F1290 X89.55201780566954 Y160.80009707802606 E389.1672
G0 F2820 X89.15179536751795 Y160.3998746398745
G1 F1290 X53.212386106930474 Y160.3998746398745 E390.36255
G0 F2820 X53.61190143830088 Y160.00035930850407
G1 F1290 X88.75228003614755 Y160.00035930850407 E391.53132
G0 F2820 X88.35205759799597 Y159.60013687035251
G1 F1290 X54.01212387645246 Y159.60013687035251 E392.67347
G0 F2820 X54.41234631460405 Y159.1999144322009
G1 F1290 X87.95183515984439 Y159.1999144322009 E393.789
G0 F2820 X87.5516127216928 Y158.79969199404934
G1 F1290 X54.811861645974446 Y158.80039910083053 E394.87793
G0 F2820 X55.21208408412603 Y158.40017666267892
G1 F1290 X87.15209739032241 Y158.40017666267892 E395.94026
G0 F2820 X86.75187495217082 Y157.99995422452736
G1 F1290 X55.61230652227762 Y157.99995422452736 E396.97596
G0 F2820 X56.01182185364802 Y157.60043889315693
G1 F1290 X86.35165251401922 Y157.59973178637574 E397.98507
G0 F2820 X85.95213718264883 Y157.20021645500537
G1 F1290 X56.41204429179961 Y157.20021645500537 E398.96758
G0 F2820 X56.8122667299512 Y156.79999401685376
G1 F1290 X85.55191474449724 Y156.79999401685376 E399.92346
G0 F2820 X85.15169230634565 Y156.3997715787022
G1 F1290 X57.21178206132159 Y156.4004786854834 E400.85275
G0 F2820 X57.61200449947318 Y156.00025624733178
G1 F1290 X84.75217697497526 Y156.00025624733178 E401.75543
G0 F2820 X84.35195453682367 Y155.60003380918022
G1 F1290 X58.012226937624774 Y155.60003380918022 E402.6315
G0 F2820 X58.41244937577636 Y155.1998113710286
G1 F1290 X83.95173209867208 Y155.1998113710286 E403.48094
G0 F2820 X83.55221676730167 Y154.80029603965824
G1 F1290 X58.81196470714676 Y154.8002960396582 E404.3038
G0 F2820 X59.21218714529833 Y154.40007360150662
G1 F1290 X83.15199432915009 Y154.40007360150662 E405.10004
G0 F2820 X82.7517718909985 Y153.99985116335506
G1 F1290 X59.61240958344992 Y153.99985116335506 E405.86966
G0 F2820 X60.01192491482033 Y153.60033583198464
G1 F1290 X82.3522565596281 Y153.60033583198464 E406.6127
G0 F2820 X81.95203412147652 Y153.20011339383305
G1 F1290 X60.412147352971914 Y153.20011339383308 E407.32912
G0 F2820 X60.8123697911235 Y152.79989095568146
G1 F1290 X81.55181168332494 Y152.79989095568146 E408.01892
G0 F2820 X81.15229635195455 Y152.4003756243111
G1 F1290 X61.2118851224939 Y152.4003756243111 E408.68214
G0 F2820 X61.612107560645484 Y152.00015318615948
G1 F1290 X80.75207391380296 Y152.00015318615948 E409.31874
G0 F2820 X80.35185147565137 Y151.59993074800792
G1 F1290 X62.01232999879707 Y151.59993074800792 E409.92871
G0 F2820 X62.411845330167466 Y151.2004154166375
G1 F1290 X79.95162903749979 Y151.1997083098563 E410.51209
G0 F2820 X79.55211370612938 Y150.80019297848594
G1 F1290 X62.812067768319054 Y150.8001929784859 E411.06886
G0 F2820 X63.21229020647064 Y150.39997054033432
G1 F1290 X79.15189126797779 Y150.39997054033432 E411.59902
G0 F2820 X78.7516688298262 Y149.99974810218274
G1 F1290 X63.611805537841036 Y150.00045520896393 E412.10257
G0 F2820 X64.01202797599262 Y149.60023277081234
G1 F1290 X78.3521534984558 Y149.60023277081234 E412.57953
G0 F2820 X77.95193106030422 Y149.20001033266075
G1 F1290 X64.41225041414421 Y149.20001033266075 E413.02986
G0 F2820 X64.8124728522958 Y148.79978789450917
G1 F1290 X77.55170862215263 Y148.79978789450917 E413.45357
G0 F2820 X77.15219329078224 Y148.40027256313877
G1 F1290 X65.2119881836662 Y148.40027256313877 E413.8507
G0 F2820 X65.61221062181778 Y148.00005012498718
G1 F1290 X76.75197085263065 Y148.00005012498718 E414.22121
G0 F2820 X76.35174841447908 Y147.59982768683562
G1 F1290 X66.01243305996937 Y147.59982768683562 E414.5651
G0 F2820 X66.41194839133978 Y147.2003123554652
G1 F1290 X75.95223308310867 Y147.2003123554652 E414.88241
G0 F2820 X75.55201064495708 Y146.80008991731364
G1 F1290 X66.81217082949135 Y146.8000899173136 E415.1731
G0 F2820 X67.21239326764294 Y146.39986747916203
G1 F1290 X75.15178820680549 Y146.39986747916203 E415.43716
G0 F2820 X74.7522728754351 Y146.00035214779163
G1 F1290 X67.61190859901333 Y146.00035214779163 E415.67465
G0 F2820 X68.01213103716492 Y145.60012970964004
G1 F1290 X74.35205043728351 Y145.60012970964004 E415.88552
G0 F2820 X73.95182799913192 Y145.19990727148846
G1 F1290 X68.41235347531651 Y145.19990727148846 E416.06976
G0 F2820 X68.81186880668692 Y144.80039194011806
G1 F1290 X73.55231266776153 Y144.80039194011806 E416.22743
G0 F2820 X73.15209022960994 Y144.40016950196647
G1 F1290 X69.2120912448385 Y144.40016950196647 E416.35847
G0 F2820 X69.61231368299008 Y143.9999470638149
G1 F1290 X72.75186779145835 Y143.9999470638149 E416.4629
G0 F2820 X72.35164535330676 Y143.5997246256633
G1 F1290 X70.01182901436049 Y143.6004317324445 E416.54072
G0 F2820 X70.41205145251207 Y143.2002092942929
G1 F1290 X71.95213002193637 Y143.2002092942929 E416.59194
G0 F2820 X71.55190758378478 Y142.79998685614132
G1 F1290 X70.81227389066366 Y142.79998685614132 E416.61654
G0 F2820 X70.83419420088045 Y142.8219071663581
; MESH:NONMESH
G0 F600 X70.83419420088045 Y142.8219071663581 Z0.6
G0 F2820 X71.26128669671711 Y198.25766459782105
; TIME_ELAPSED:685.986977
; LAYER:2
; TYPE:WALL-INNER
; MESH:Print_test_with_casting v1.stl 1
G1 F1200 X99.26271523170439 Y170.25623606283375 E417.93364
G1 X71.18209073722423 Y142.1756115683536 E419.25447
G1 X43.18066220223694 Y170.1770401033409 E420.57157
G1 X71.26128669671711 Y198.25766459782105 E421.8924
G0 F4200 X71.26128669671711 Y198.8233500227703
G1 F1200 X99.82840065665363 Y170.25623606283378 E423.23611
G1 X71.18209073722423 Y141.60992614340435 E424.58354
G1 X42.614976777287694 Y170.1770401033409 E425.92725
G1 X71.26128669671711 Y198.8233500227703 E427.27469
G0 F4200 X71.26128669671712 Y199.38903544771952
; TYPE:WALL-OUTER
G1 F900 X100.39408608160288 Y170.25623606283378 E428.645
G1 X71.18209073722421 Y141.04424071845511 E430.01905
G1 X42.049291352338464 Y170.17704010334086 E431.38936
G1 X71.26128669671712 Y199.38903544771952 E432.76341
G0 F4200 X71.40270805295442 Y199.24761409148223
G0 X71.26340801706067 Y198.4294915456494
G0 X98.80026739680841 Y170.0483466691649
; TYPE:SKIN
G1 F1500 X98.8002673968084 Y170.46412545650261 E432.77724
G0 F4200 X98.4000449586568 Y170.8643478946542
G1 F1500 X98.4000449586568 Y169.64812423101336 E432.81769
G0 F4200 X97.99982252050522 Y169.24790179286174
G1 F1500 X98.0005296272864 Y171.26386322602463 E432.88474
G0 F4200 X97.60030718913481 Y171.66408566417618
G1 F1500 X97.60030718913482 Y168.84838646149137 E432.97839
G0 F4200 X97.20008475098324 Y168.44816402333976
G1 F1500 X97.20008475098324 Y172.06430810232777 E433.09866
G0 F4200 X96.79986231283165 Y172.46453054047936
G1 F1500 X96.79986231283165 Y168.0479415851882 E433.24556
G0 F4200 X96.39963987468006 Y167.64771914703658
G1 F1500 X96.40034698146125 Y172.86404587184975 E433.41905
G0 F4200 X96.00012454330967 Y173.26426831000134
G1 F1500 X96.00012454330967 Y167.24820381566622 E433.61915
G0 F4200 X95.59990210515807 Y166.8479813775146
G1 F1500 X95.59990210515808 Y173.66449074815293 E433.84587
G0 F4200 X95.20038677378767 Y174.06400607952332
G1 F1500 X95.1996796670065 Y166.44775893936304 E434.09918
G0 F4200 X94.80016433563608 Y166.04824360799262
G1 F1500 X94.80016433563608 Y174.46422851767494 E434.3791
G0 F4200 X94.39994189748451 Y174.8644509558265
G1 F1500 X94.39994189748451 Y165.64802116984106 E434.68564
G0 F4200 X93.99971945933292 Y165.24779873168944
G1 F1500 X94.0004265661141 Y175.26396628719692 E435.01878
G0 F4200 X93.60020412796251 Y175.66418872534848
G1 F1500 X93.60020412796253 Y164.84828340031908 E435.37852
G0 F4200 X93.19998168981094 Y164.44806096216746
G1 F1500 X93.19998168981093 Y176.0644111635001 E435.76488
G0 F4200 X92.80046635844053 Y176.46392649487046
G1 F1500 X92.79975925165935 Y164.0478385240159 E436.17784
G0 F4200 X92.40024392028896 Y163.64832319264548
G1 F1500 X92.40024392028894 Y176.86414893302208 E436.6174
G0 F4200 X92.00002148213737 Y177.26437137117364
G1 F1500 X92.00002148213736 Y163.24810075449392 E437.08358
G0 F4200 X91.59979904398577 Y162.8478783163423
G1 F1500 X91.60050615076696 Y177.66388670254406 E437.57637
G0 F4200 X91.20028371261537 Y178.06410914069562
G1 F1500 X91.20028371261537 Y162.44836298497194 E438.09575
G0 F4200 X90.80006127446379 Y162.04814054682032
G1 F1500 X90.80006127446379 Y178.4643315788472 E438.64175
G0 F4200 X90.40054594309339 Y178.8638469102176
G1 F1500 X90.3998388363122 Y161.64791810866873 E439.21436
G0 F4200 X89.99961639816061 Y161.24769567051715
G1 F1500 X90.0003235049418 Y179.2640693483692 E439.81358
G0 F4200 X89.60010106679022 Y179.66429178652078
G1 F1500 X89.60010106679022 Y160.84818033914675 E440.43941
G0 F4200 X89.19987862863863 Y160.44795790099516
G1 F1500 X89.19987862863863 Y180.06451422467237 E441.09186
G0 F4200 X88.80036329726823 Y180.4640295560428
G1 F1500 X88.79965619048706 Y160.0477354628436 E441.77091
G0 F4200 X88.40014085911665 Y159.64822013147318
G1 F1500 X88.40014085911665 Y180.86425199419438 E442.47656
G0 F4200 X87.99991842096506 Y181.26447443234593
G1 F1500 X87.99991842096506 Y159.24799769332162 E443.20883
G0 F4200 X87.59969598281347 Y158.84777525517
G1 F1500 X87.60040308959466 Y181.66398976371636 E443.9677
G0 F4200 X87.20018065144308 Y182.06421220186792
G1 F1500 X87.20018065144308 Y158.4482599237996 E444.75317
G0 F4200 X86.79995821329149 Y158.04803748564802
G1 F1500 X86.79995821329149 Y182.4644346400195 E445.56526
G0 F4200 X86.4004428819211 Y182.8639499713899
G1 F1500 X86.3997357751399 Y157.64781504749644 E446.40395
G0 F4200 X86.0002204437695 Y157.24829971612604
G1 F1500 X86.0002204437695 Y183.2641724095415 E447.26924
G0 F4200 X85.59999800561792 Y183.66439484769307
G1 F1500 X85.59999800561792 Y156.84807727797445 E448.16116
G0 F4200 X85.19977556746633 Y156.44785483982287
G1 F1500 X85.20048267424752 Y184.0639101790635 E449.07967
G0 F4200 X84.80026023609594 Y184.46413261721509
G1 F1500 X84.80026023609594 Y156.04833950845247 E450.02479
G0 F4200 X84.40003779794435 Y155.64811707030088
G1 F1500 X84.40003779794435 Y184.86435505536667 E450.99652
G0 F4200 X84.00052246657395 Y185.26387038673707
G1 F1500 X83.99981535979276 Y155.2478946321493 E451.99486
G0 F4200 X83.60030002842237 Y154.8483793007789
G1 F1500 X83.60030002842237 Y185.66409282488866 E453.01979
G0 F4200 X83.20007759027078 Y186.06431526304024
G1 F1500 X83.20007759027078 Y154.44815686262731 E454.07135
G0 F4200 X82.79985515211919 Y154.04793442447573
G1 F1500 X82.79985515211919 Y186.46453770119183 E455.14953
G0 F4200 X82.4003398207488 Y186.86405303256223
G1 F1500 X82.3996327139676 Y153.64771198632414 E456.25431
G0 F4200 X82.00011738259721 Y153.24819665495374
G1 F1500 X82.00011738259721 Y187.2642754707138 E457.38569
G0 F4200 X81.59989494444562 Y187.6644979088654
G1 F1500 X81.59989494444562 Y152.84797421680216 E458.54369
G0 F4200 X81.19967250629404 Y152.44775177865057
G1 F1500 X81.20037961307523 Y188.0640132402358 E459.72829
G0 F4200 X80.80015717492364 Y188.46423567838738
G1 F1500 X80.80015717492364 Y152.04823644728017 E460.93949
G0 F4200 X80.39993473677205 Y151.6480140091286
G1 F1500 X80.39993473677205 Y188.86445811653897 E462.17732
G0 F4200 X80.00041940540166 Y189.26397344790936
G1 F1500 X79.99971229862047 Y151.247791570977 E463.44174
G0 F4200 X79.60019696725007 Y150.8482762396066
G1 F1500 X79.60019696725007 Y189.66419588606095 E464.73276
G0 F4200 X79.19997452909848 Y190.06441832421254
G1 F1500 X79.19997452909848 Y150.44805380145502 E466.05041
G0 F4200 X78.7997520909469 Y150.04783136330343
G1 F1500 X78.80045919772809 Y190.46393365558293 E467.39465
G0 F4200 X78.4002367595765 Y190.86415609373452
G1 F1500 X78.4002367595765 Y149.64831603193304 E468.7655
G0 F4200 X78.00001432142491 Y149.24809359378145
G1 F1500 X78.00001432142491 Y191.2643785318861 E470.16297
G0 F4200 X77.60049899005452 Y191.6638938632565
G1 F1500 X77.59979188327333 Y148.84787115562986 E471.58703
G0 F4200 X77.20027655190292 Y148.44835582425947
G1 F1500 X77.20027655190293 Y192.0641163014081 E473.0377
G0 F4200 X76.80005411375134 Y192.46433873955968
G1 F1500 X76.80005411375134 Y148.04813338610788 E474.51499
G0 F4200 X76.39983167559976 Y147.6479109479563
G1 F1500 X76.40053878238093 Y192.86385407093007 E476.01888
G0 F4200 X76.00031634422935 Y193.26407650908166
G1 F1500 X75.99960923744817 Y147.2476885098047 E477.54939
G0 F4200 X75.60009390607777 Y146.8481731784343
G1 F1500 X75.60009390607777 Y193.66429894723325 E479.1065
G0 F4200 X75.19987146792619 Y194.06452138538484
G1 F1500 X75.19987146792619 Y146.44795074028272 E480.69023
G0 F4200 X74.7996490297746 Y146.04772830213113
G1 F1500 X74.80035613655579 Y194.46403671675523 E482.30057
G0 F4200 X74.4001336984042 Y194.86425915490682
G1 F1500 X74.4001336984042 Y145.6482129707607 E483.9375
G0 F4200 X73.99991126025262 Y145.24799053260915
G1 F1500 X73.99991126025262 Y195.2644815930584 E485.60105
G0 F4200 X73.60039592888222 Y195.6639969244288
G1 F1500 X73.59968882210103 Y144.84776809445754 E487.29121
G0 F4200 X73.20017349073062 Y144.44825276308717
G1 F1500 X73.20017349073063 Y196.0642193625804 E489.00796
G0 F4200 X72.79995105257905 Y196.46444180073198
G1 F1500 X72.79995105257903 Y144.04803032493555 E490.75134
G0 F4200 X72.39972861442746 Y143.647807886784
G1 F1500 X72.40043572120864 Y196.86395713210237 E492.52131
G0 F4200 X72.00021328305705 Y197.26417957025396
G1 F1500 X72.00021328305705 Y143.24829255541357 E494.31789
G0 F4200 X71.59999084490548 Y142.848070117262
G1 F1500 X71.59999084490546 Y197.66440200840555 E496.14109
G0 F4200 X71.19976840675388 Y197.94158786663067
G1 F1500 X71.19976840675389 Y142.44784767911042 E497.98682
G0 F4200 X70.80025307538348 Y142.8120076714215
G1 F1500 X70.80025307538348 Y197.54207253526027 E499.80715
G0 F4200 X70.4000306372319 Y197.1418500971087
G1 F1500 X70.4000306372319 Y143.21223010957306 E501.60085
G0 F4200 X69.9998081990803 Y143.61245254772467
G1 F1500 X69.9998081990803 Y196.7416276589571 E503.36794
G0 F4200 X69.60029286770991 Y196.3421123275867
G1 F1500 X69.60029286770991 Y144.01196787909504 E505.10845
G0 F4200 X69.20007042955832 Y144.41219031724665
G1 F1500 X69.20007042955832 Y195.94188988943512 E506.82233
G0 F4200 X68.79984799140674 Y195.54166745128353
G1 F1500 X68.79984799140674 Y144.8124127553982 E508.50959
G0 F4200 X68.40033266003634 Y145.21192808676864
G1 F1500 X68.40033266003633 Y195.14215211991313 E510.17028
G0 F4200 X68.00011022188474 Y194.74192968176155
G1 F1500 X68.00011022188475 Y145.61215052492022 E511.80434
G0 F4200 X67.59988778373317 Y146.0123729630718
G1 F1500 X67.59988778373317 Y194.34170724360996 E513.41178
G0 F4200 X67.20037245236276 Y193.94219191223956
G1 F1500 X67.20037245236277 Y146.4118882944422 E514.99265
G0 F4200 X66.80015001421118 Y146.8121107325938
G1 F1500 X66.80015001421118 Y193.54196947408798 E516.54689
G0 F4200 X66.3999275760596 Y193.1417470359364
G1 F1500 X66.3999275760596 Y147.21233317074535 E518.07451
G0 F4200 X66.0004122446892 Y147.61184850211578
G1 F1500 X66.0004122446892 Y192.742231704566 E519.57555
G0 F4200 X65.60018980653761 Y192.3420092664144
G1 F1500 X65.60018980653761 Y148.01207094026736 E521.04997
G0 F4200 X65.19996736838603 Y148.41229337841895
G1 F1500 X65.19996736838603 Y191.94178682826282 E522.49776
G0 F4200 X64.79974493023444 Y191.54156439011123
G1 F1500 X64.80045203701563 Y148.81180870978935 E523.91896
G0 F4200 X64.40022959886404 Y149.21203114794093
G1 F1500 X64.40022959886403 Y191.14204905874084 E525.31356
G0 F4200 X64.00000716071244 Y190.74182662058925
G1 F1500 X64.00000716071246 Y149.61225358609252 E526.68154
G0 F4200 X63.59978472256087 Y150.0124760242441
G1 F1500 X63.59978472256086 Y190.34160418243766 E528.02289
G0 F4200 X63.20026939119046 Y189.94208885106727
G1 F1500 X63.200269391190474 Y150.4119913556145 E529.33766
G0 F4200 X62.80004695303889 Y150.8122137937661
G1 F1500 X62.80004695303887 Y189.54186641291568 E530.62582
G0 F4200 X62.3998245148873 Y189.1416439747641
G1 F1500 X62.3998245148873 Y151.21243623191765 E531.88735
G0 F4200 X62.00030918351689 Y151.61195156328807
G1 F1500 X62.00030918351689 Y188.7421286433937 E533.1223
G0 F4200 X61.60008674536532 Y188.3419062052421
G1 F1500 X61.60008674536532 Y152.01217400143966 E534.33063
G0 F4200 X61.19986430721373 Y152.41239643959125
G1 F1500 X61.19986430721373 Y187.94168376709052 E535.51234
G0 F4200 X60.80034897584333 Y187.54216843572013
G1 F1500 X60.800348975843335 Y152.81191177096164 E536.66748
G0 F4200 X60.40012653769175 Y153.21213420911323
G1 F1500 X60.40012653769174 Y187.14194599756854 E537.79599
G0 F4200 X59.99990409954015 Y186.74172355941695
G1 F1500 X59.99990409954016 Y153.61235664726482 E538.89787
G0 F4200 X59.60038876816975 Y154.0118719786352
G1 F1500 X59.60038876816975 Y186.34220822804656 E539.97318
G0 F4200 X59.20016633001816 Y185.94198578989497
G1 F1500 X59.20016633001816 Y154.4120944167868 E541.02187
G0 F4200 X58.799943891866576 Y154.8123168549384
G1 F1500 X58.799943891866576 Y185.54176335174338 E542.04394
G0 F4200 X58.40042856049618 Y185.142248020373
G1 F1500 X58.40042856049618 Y155.21183218630878 E543.03943
G0 F4200 X58.00020612234459 Y155.61205462446037
G1 F1500 X58.00020612234459 Y184.7420255822214 E544.0083
G0 F4200 X57.599983684193006 Y184.34180314406981
G1 F1500 X57.59998368419301 Y156.01227706261196 E544.95054
G0 F4200 X57.200468352822604 Y156.41179239398235
G1 F1500 X57.199761246041426 Y183.94158070591823 E545.86618
G0 F4200 X56.800245914671024 Y183.5420653745478
G1 F1500 X56.80024591467103 Y156.81201483213394 E546.75523
G0 F4200 X56.40002347651944 Y157.21223727028553
G1 F1500 X56.40002347651944 Y183.14184293639624 E547.61765
G0 F4200 X55.999801038367856 Y182.74162049824466
G1 F1500 X55.999801038367856 Y157.61245970843711 E548.45345
G0 F4200 X55.600285706997454 Y158.0119750398075
G1 F1500 X55.600285706997454 Y182.34210516687426 E549.26267
G0 F4200 X55.20006326884587 Y181.94188272872267
G1 F1500 X55.20006326884587 Y158.4121974779591 E550.04527
G0 F4200 X54.79984083069428 Y158.81241991611068
G1 F1500 X54.79984083069428 Y181.5416602905711 E550.80125
G0 F4200 X54.400325499323884 Y181.1421449592007
G1 F1500 X54.400325499323884 Y159.21193524748108 E551.53065
G0 F4200 X54.0001030611723 Y159.61215768563267
G1 F1500 X54.0001030611723 Y180.7419225210491 E552.23343
G0 F4200 X53.59988062302071 Y180.3417000828975
G1 F1500 X53.59988062302071 Y160.01238012378425 E552.90959
G0 F4200 X53.20036529165031 Y160.41189545515465
G1 F1500 X53.200365291650314 Y179.9421847515271 E553.55917
G0 F4200 X52.80014285349873 Y179.5419623133755
G1 F1500 X52.80014285349872 Y160.81211789330627 E554.18213
G0 F4200 X52.39992041534715 Y161.21234033145782
G1 F1500 X52.39992041534714 Y179.14173987522392 E554.77846
G0 F4200 X52.00040508397674 Y178.74222454385352
G1 F1500 X52.00040508397674 Y161.61185566282825 E555.34822
G0 F4200 X51.60018264582516 Y162.0120781009798
G1 F1500 X51.60018264582515 Y178.34200210570194 E555.89135
G0 F4200 X51.19996020767356 Y177.94177966755035
G1 F1500 X51.19996020767357 Y162.4123005391314 E556.40787
G0 F4200 X50.800444876303175 Y162.8118158705018
G1 F1500 X50.79973776952198 Y177.5415572293988 E556.89778
G0 F4200 X50.40022243815159 Y177.14204189802837
G1 F1500 X50.40022243815159 Y163.21203830865338 E557.36109
G0 F4200 X50.0 Y163.61226074680496
G1 F1500 X50.0 Y176.7418194598768 E557.79778
G0 F4200 X49.59977756184841 Y176.3415970217252
G1 F1500 X49.59977756184841 Y164.01248318495655 E558.20785
G0 F4200 X49.20026223047801 Y164.41199851632695
G1 F1500 X49.20026223047802 Y175.94208169035483 E558.59134
G0 F4200 X48.80003979232643 Y175.5418592522032
G1 F1500 X48.80003979232642 Y164.81222095447856 E558.94821
G0 F4200 X48.399817354174836 Y165.21244339263012
G1 F1500 X48.399817354174836 Y175.14163681405165 E559.27846
G0 F4200 X48.00030202280444 Y174.74212148268123
G1 F1500 X48.00030202280444 Y165.61195872400054 E559.58213
G0 F4200 X47.60007958465285 Y166.0121811621521
G1 F1500 X47.60007958465285 Y174.34189904452967 E559.85918
G0 F4200 X47.199857146501266 Y173.94167660637805
G1 F1500 X47.199857146501266 Y166.41240360030372 E560.1096
G0 F4200 X46.800341815130864 Y166.8119189316741
G1 F1500 X46.80034181513087 Y173.54216127500766 E560.33345
G0 F4200 X46.40011937697928 Y173.14193883685607
G1 F1500 X46.400119376979276 Y167.2121413698257 E560.53068
G0 F4200 X45.9998969388277 Y167.61236380797726
G1 F1500 X45.99989693882769 Y172.74171639870448 E560.70128
G0 F4200 X45.600381607457294 Y172.3422010673341
G1 F1500 X45.600381607457294 Y168.01187913934768 E560.84531
G0 F4200 X45.200159169305714 Y168.41210157749924
G1 F1500 X45.20015916930571 Y171.9419786291825 E560.96271
G0 F4200 X44.799936731154126 Y171.5417561910309
G1 F1500 X44.799936731154126 Y168.81232401565086 E561.05349
G0 F4200 X44.40042139978373 Y169.21183934702123
G1 F1500 X44.400421399783724 Y171.14224085966052 E561.1177
G0 F4200 X44.000198961632144 Y170.74201842150893
G1 F1500 X44.000198961632144 Y169.61206178517284 E561.15528
G0 F4200 X43.59997652348056 Y170.0122842233244
G1 F1500 X43.59997652348056 Y170.34179598335734 E561.16624
G0 F4200 X43.62118972691616 Y170.32058277992175
; MESH:NONMESH
G0 F600 X43.62118972691616 Y170.32058277992175 Z0.8
G0 F4200 X71.26128669671711 Y198.25766459782105
; TIME_ELAPSED:873.869407
; LAYER:3
; TYPE:WALL-INNER
; MESH:Print_test_with_casting v1.stl 1
G1 F1200 X99.26271523170439 Y170.25623606283375 E562.48334
G1 X71.18209073722423 Y142.1756115683536 E563.80417
G1 X43.18066220223694 Y170.1770401033409 E565.12127
G1 X71.26128669671711 Y198.25766459782105 E566.4421
G0 F4200 X71.26128669671711 Y198.8233500227703
G1 F1200 X99.82840065665363 Y170.25623606283378 E567.78581
G1 X71.18209073722423 Y141.60992614340435 E569.13324
G1 X42.614976777287694 Y170.1770401033409 E570.47695
G1 X71.26128669671711 Y198.8233500227703 E571.82438
G0 F4200 X71.26128669671712 Y199.38903544771952
; TYPE:WALL-OUTER
G1 F900 X100.39408608160288 Y170.25623606283378 E573.1947
G1 X71.18209073722421 Y141.04424071845511 E574.56874
G1 X42.049291352338464 Y170.17704010334086 E575.93906
G1 X71.26128669671712 Y199.38903544771952 E577.3131
G0 F4200 X71.40270805295442 Y199.24761409148223
G0 X71.26340801706067 Y198.4294915456494
G0 X70.85823583144077 Y197.60005529131757
; TYPE:SKIN
G1 F1500 X71.66433756199345 Y197.60005529131757 E577.33992
G0 F4200 X72.06385289336384 Y197.20053995994718
G1 F1500 X70.45801339328919 Y197.199832853166 E577.39333
G0 F4200 X70.0577909551376 Y196.7996104150144
G1 F1500 X72.46407533151543 Y196.8003175217956 E577.47336
G0 F4200 X72.86429776966702 Y196.400095083644
G1 F1500 X69.65827562376721 Y196.400095083644 E577.57999
G0 F4200 X69.25805318561562 Y195.99987264549242
G1 F1500 X73.2645202078186 Y195.99987264549242 E577.71325
G0 F4200 X73.664035539189 Y195.60035731412202
G1 F1500 X68.85783074746404 Y195.59965020734083 E577.8731
G0 F4200 X68.45831541609364 Y195.20013487597043
G1 F1500 X74.06425797734059 Y195.20013487597043 E578.05956
G0 F4200 X74.46448041549218 Y194.79991243781885
G1 F1500 X68.05809297794205 Y194.79991243781885 E578.27263
G0 F4200 X67.65787053979047 Y194.39968999966726
G1 F1500 X74.86399574686257 Y194.40039710644845 E578.51231
G0 F4200 X75.26421818501416 Y194.00017466829686
G1 F1500 X67.25835520842006 Y194.00017466829686 E578.77859
G0 F4200 X66.85813277026847 Y193.59995223014528
G1 F1500 X75.66444062316575 Y193.59995223014528 E579.07149
G0 F4200 X76.06395595453614 Y193.20043689877488
G1 F1500 X66.45791033211688 Y193.1997297919937 E579.39098
G0 F4200 X66.05839500074649 Y192.8002144606233
G1 F1500 X76.46417839268773 Y192.8002144606233 E579.73708
G0 F4200 X76.86440083083932 Y192.3999920224717
G1 F1500 X65.6581725625949 Y192.3999920224717 E580.1098
G0 F4200 X65.25795012444331 Y191.99976958432012
G1 F1500 X77.26391616220971 Y192.0004766911013 E580.50912
G0 F4200 X77.6641386003613 Y191.60025425294972
G1 F1500 X64.85843479307292 Y191.60025425294972 E580.93504
G0 F4200 X64.45821235492133 Y191.20003181479814
G1 F1500 X78.06436103851289 Y191.20003181479814 E581.38758
G0 F4200 X78.4638763698833 Y190.8005164834277
G1 F1500 X64.05798991676976 Y190.79980937664655 E581.86673
G0 F4200 X63.65776747861817 Y190.39958693849496
G1 F1500 X78.86409880803488 Y190.40029404527613 E582.37249
G0 F4200 X79.26432124618646 Y190.00007160712457
G1 F1500 X63.25825214724777 Y190.00007160712457 E582.90486
G0 F4200 X62.85802970909618 Y189.59984916897298
G1 F1500 X79.66454368433804 Y189.59984916897298 E583.46384
G0 F4200 X80.06405901570844 Y189.20033383760259
G1 F1500 X62.45780727094459 Y189.1996267308214 E584.04943
G0 F4200 X62.05829193957419 Y188.800111399451
G1 F1500 X80.46428145386002 Y188.800111399451 E584.66161
G0 F4200 X80.86450389201161 Y188.3998889612994
G1 F1500 X61.6580695014226 Y188.3998889612994 E585.30042
G0 F4200 X61.257847063271015 Y187.99966652314782
G1 F1500 X81.26401922338201 Y188.00037362992902 E585.96583
G0 F4200 X81.6642416615336 Y187.60015119177743
G1 F1500 X60.85833173190062 Y187.60015119177743 E586.65784
G0 F4200 X60.45810929374903 Y187.19992875362584
G1 F1500 X82.06446409968518 Y187.19992875362584 E587.37647
G0 F4200 X82.46397943105558 Y186.80041342225542
G1 F1500 X60.057886855597445 Y186.79970631547422 E588.1217
G0 F4200 X59.65837152422705 Y186.40019098410383
G1 F1500 X82.86420186920716 Y186.40019098410383 E588.89353
G0 F4200 X83.26442430735875 Y185.99996854595224
G1 F1500 X59.25814908607546 Y185.99996854595224 E589.69198
G0 F4200 X58.85792664792388 Y185.59974610780068
G1 F1500 X83.66393963872915 Y185.60045321458185 E590.51703
G0 F4200 X84.06416207688073 Y185.20023077643026
G1 F1500 X58.45841131655347 Y185.20023077643026 E591.36868
G0 F4200 X58.05818887840189 Y184.8000083382787
G1 F1500 X84.46438451503232 Y184.80000833827867 E592.24695
G0 F4200 X84.86389984640273 Y184.40049300690828
G1 F1500 X57.657966440250306 Y184.3997859001271 E593.15183
G0 F4200 X57.25774400209872 Y183.99956346197553
G1 F1500 X85.26412228455432 Y184.0002705687567 E594.08332
G0 F4200 X85.66434472270589 Y183.60004813060513
G1 F1500 X56.85822867072832 Y183.60004813060513 E595.04142
G0 F4200 X56.458006232576736 Y183.19982569245352
G1 F1500 X86.06386005407629 Y183.2005327992347 E596.02611
G0 F4200 X86.46408249222787 Y182.80031036108312
G1 F1500 X56.05778379442515 Y182.79960325430193 E597.03743
G0 F4200 X55.65826846305475 Y182.40008792293153
G1 F1500 X86.86430493037946 Y182.40008792293153 E598.07535
G0 F4200 X87.26452736853105 Y181.99986548477995
G1 F1500 X55.258046024903166 Y181.99986548477995 E599.13989
G0 F4200 X54.85782358675158 Y181.59964304662836
G1 F1500 X87.66404269990144 Y181.60035015340955 E600.23103
G0 F4200 X88.06426513805303 Y181.20012771525796
G1 F1500 X54.458308255381176 Y181.20012771525796 E601.34877
G0 F4200 X54.05808581722959 Y180.79990527710638
G1 F1500 X88.46448757620462 Y180.79990527710638 E602.49313
G0 F4200 X88.86400290757503 Y180.40038994573598
G1 F1500 X53.65786337907801 Y180.39968283895482 E603.66409
G0 F4200 X53.25834804770761 Y180.0001675075844
G1 F1500 X89.26422534572662 Y180.0001675075844 E604.86165
G0 F4200 X89.66444778387819 Y179.5999450694328
G1 F1500 X52.858125609556026 Y179.5999450694328 E606.08583
G0 F4200 X52.45790317140444 Y179.19972263128122
G1 F1500 X90.0639631152486 Y179.2004297380624 E607.33661
G0 F4200 X90.46418555340018 Y178.80020729991082
G1 F1500 X52.058387840034044 Y178.80020729991082 E608.614
G0 F4200 X51.65816540188246 Y178.39998486175924
G1 F1500 X90.86440799155177 Y178.39998486175924 E609.918
G0 F4200 X91.26392332292217 Y178.00046953038884
G1 F1500 X51.25794296373086 Y177.99976242360765 E611.24861
G0 F4200 X50.85842763236047 Y177.60024709223728
G1 F1500 X91.66414576107375 Y177.60024709223725 E612.60581
G0 F4200 X92.06436819922533 Y177.20002465408567
G1 F1500 X50.45820519420888 Y177.20002465408567 E613.98964
G0 F4200 X50.05798275605729 Y176.79980221593408
G1 F1500 X92.46388353059575 Y176.80050932271527 E615.40006
G0 F4200 X92.86410596874732 Y176.40028688456368
G1 F1500 X49.657760317905705 Y176.3995797777825 E616.83711
G0 F4200 X49.25824498653531 Y176.0000644464121
G1 F1500 X93.26432840689891 Y176.0000644464121 E618.30076
G0 F4200 X93.6638437382693 Y175.6005491150417
G1 F1500 X48.858022548383715 Y175.5998420082605 E619.79101
G0 F4200 X48.45780011023213 Y175.19961957010892
G1 F1500 X94.0640661764209 Y175.2003266768901 E621.30788
G0 F4200 X94.46428861457248 Y174.80010423873853
G1 F1500 X48.05828477886173 Y174.80010423873853 E622.85135
G0 F4200 X47.65806234071015 Y174.39988180058697
G1 F1500 X94.86451105272407 Y174.39988180058694 E624.42144
G0 F4200 X95.26402638409448 Y174.00036646921654
G1 F1500 X47.257839902558565 Y173.99965936243535 E626.01813
G0 F4200 X46.85832457118817 Y173.60014403106499
G1 F1500 X95.66424882224605 Y173.60014403106496 E627.64142
G0 F4200 X96.06447126039764 Y173.19992159291337
G1 F1500 X46.45810213303658 Y173.19992159291337 E629.29134
G0 F4200 X46.057879694884996 Y172.79969915476178
G1 F1500 X96.46398659176805 Y172.80040626154297 E630.96785
G0 F4200 X96.86420902991964 Y172.4001838233914
G1 F1500 X45.65836436351459 Y172.4001838233914 E632.67097
G0 F4200 X45.258141925363006 Y171.9999613852398
G1 F1500 X97.26443146807122 Y171.9999613852398 E634.4007
G0 F4200 X97.66394679944162 Y171.6004460538694
G1 F1500 X44.85791948721142 Y171.5997389470882 E636.15704
G0 F4200 X44.45840415584102 Y171.20022361571782
G1 F1500 X98.06416923759319 Y171.20022361571782 E637.93997
G0 F4200 X98.46439167574478 Y170.80000117756623
G1 F1500 X44.058181717689436 Y170.80000117756623 E639.74953
G0 F4200 X43.65795927953785 Y170.39977873941464
G1 F1500 X98.86390700711519 Y170.40048584619583 E641.58569
G0 F4200 X98.75218413568771 Y170.00026340804425
G1 F1500 X43.61199733876072 Y170.00026340804425 E643.41966
G0 F4200 X44.01221977691231 Y169.60004096989266
G1 F1500 X98.35196169753613 Y169.60004096989266 E645.22701
G0 F4200 X97.95173925938454 Y169.19981853174107
G1 F1500 X44.4124422150639 Y169.19981853174107 E647.00773
G0 F4200 X44.81195754643429 Y168.80030320037068
G1 F1500 X97.55222392801414 Y168.80030320037068 E648.76188
G0 F4200 X97.15200148986256 Y168.4000807622191
G1 F1500 X45.21217998458588 Y168.4000807622191 E650.4894
G0 F4200 X45.61240242273747 Y167.9998583240675
G1 F1500 X96.75177905171097 Y167.9998583240675 E652.19031
G0 F4200 X96.35226372034057 Y167.6003429926971
G1 F1500 X46.01191775410787 Y167.6003429926971 E653.86463
G0 F4200 X46.41214019225946 Y167.2001205545455
G1 F1500 X95.95204128218899 Y167.20012055454552 E655.51234
G0 F4200 X95.5518188440374 Y166.79989811639393
G1 F1500 X46.812362630411045 Y166.79989811639393 E657.13342
G0 F4200 X47.21187796178144 Y166.4003827850235
G1 F1500 X95.152303512667 Y166.4003827850235 E658.72792
G0 F4200 X94.75208107451542 Y166.00016034687195
G1 F1500 X47.61210039993303 Y166.00016034687195 E660.2958
G0 F4200 X48.01232283808461 Y165.59993790872036
G1 F1500 X94.35185863636383 Y165.59993790872034 E661.83706
G0 F4200 X93.95163619821224 Y165.19971547056878
G1 F1500 X48.41183816945502 Y165.20042257734997 E663.35172
G0 F4200 X48.81206060760659 Y164.80020013919838
G1 F1500 X93.55212086684183 Y164.80020013919835 E664.83978
G0 F4200 X93.15189842869026 Y164.3999777010468
G1 F1500 X49.21228304575818 Y164.3999777010468 E666.30122
G0 F4200 X49.61179837712858 Y164.00046236967637
G1 F1500 X92.75167599053867 Y163.9997552628952 E667.73606
G0 F4200 X92.35216065916828 Y163.6002399315248
G1 F1500 X50.01202081528017 Y163.6002399315248 E669.1443
G0 F4200 X50.412243253431754 Y163.2000174933732
G1 F1500 X91.95193822101669 Y163.20001749337322 E670.52591
G0 F4200 X91.5517157828651 Y162.79979505522164
G1 F1500 X50.81246569158334 Y162.79979505522164 E671.88091
G0 F4200 X51.211981022953736 Y162.4002797238512
G1 F1500 X91.1522004514947 Y162.4002797238512 E673.20932
G0 F4200 X90.75197801334312 Y162.00005728569965
G1 F1500 X51.612203461105324 Y162.00005728569965 E674.51112
G0 F4200 X52.01242589925691 Y161.59983484754804
G1 F1500 X90.35175557519153 Y161.59983484754804 E675.78629
G0 F4200 X89.95224024382112 Y161.20031951617767
G1 F1500 X52.41194123062731 Y161.20031951617767 E677.03489
G0 F4200 X52.8121636687789 Y160.80009707802606
G1 F1500 X89.55201780566954 Y160.80009707802606 E678.25686
G0 F4200 X89.15179536751795 Y160.3998746398745
G1 F1500 X53.212386106930474 Y160.3998746398745 E679.45221
G0 F4200 X53.61190143830088 Y160.00035930850407
G1 F1500 X88.75228003614755 Y160.00035930850407 E680.62098
G0 F4200 X88.35205759799597 Y159.60013687035251
G1 F1500 X54.01212387645246 Y159.60013687035251 E681.76313
G0 F4200 X54.41234631460405 Y159.1999144322009
G1 F1500 X87.95183515984439 Y159.1999144322009 E682.87866
G0 F4200 X87.5516127216928 Y158.79969199404934
G1 F1500 X54.811861645974446 Y158.80039910083053 E683.96759
G0 F4200 X55.21208408412603 Y158.40017666267892
G1 F1500 X87.15209739032241 Y158.40017666267892 E685.02992
G0 F4200 X86.75187495217082 Y157.99995422452736
G1 F1500 X55.61230652227762 Y157.99995422452736 E686.06562
G0 F4200 X56.01182185364802 Y157.60043889315693
G1 F1500 X86.35165251401922 Y157.59973178637574 E687.07473
G0 F4200 X85.95213718264883 Y157.20021645500537
G1 F1500 X56.41204429179961 Y157.20021645500537 E688.05724
G0 F4200 X56.8122667299512 Y156.79999401685376
G1 F1500 X85.55191474449724 Y156.79999401685376 E689.01312
G0 F4200 X85.15169230634565 Y156.3997715787022
G1 F1500 X57.21178206132159 Y156.4004786854834 E689.94241
G0 F4200 X57.61200449947318 Y156.00025624733178
G1 F1500 X84.75217697497526 Y156.00025624733178 E690.84509
G0 F4200 X84.35195453682367 Y155.60003380918022
G1 F1500 X58.012226937624774 Y155.60003380918022 E691.72116
G0 F4200 X58.41244937577636 Y155.1998113710286
G1 F1500 X83.95173209867208 Y155.1998113710286 E692.5706
G0 F4200 X83.55221676730167 Y154.80029603965824
G1 F1500 X58.81196470714676 Y154.8002960396582 E693.39346
G0 F4200 X59.21218714529833 Y154.40007360150662
G1 F1500 X83.15199432915009 Y154.40007360150662 E694.1897
G0 F4200 X82.7517718909985 Y153.99985116335506
G1 F1500 X59.61240958344992 Y153.99985116335506 E694.95932
G0 F4200 X60.01192491482033 Y153.60033583198464
G1 F1500 X82.3522565596281 Y153.60033583198464 E695.70236
G0 F4200 X81.95203412147652 Y153.20011339383305
G1 F1500 X60.412147352971914 Y153.20011339383308 E696.41878
G0 F4200 X60.8123697911235 Y152.79989095568146
G1 F1500 X81.55181168332494 Y152.79989095568146 E697.10858
G0 F4200 X81.15229635195455 Y152.4003756243111
G1 F1500 X61.2118851224939 Y152.4003756243111 E697.7718
G0 F4200 X61.612107560645484 Y152.00015318615948
G1 F1500 X80.75207391380296 Y152.00015318615948 E698.4084
G0 F4200 X80.35185147565137 Y151.59993074800792
G1 F1500 X62.01232999879707 Y151.59993074800792 E699.01837
G0 F4200 X62.411845330167466 Y151.2004154166375
G1 F1500 X79.95162903749979 Y151.1997083098563 E699.60175
G0 F4200 X79.55211370612938 Y150.80019297848594
G1 F1500 X62.812067768319054 Y150.8001929784859 E700.15852
G0 F4200 X63.21229020647064 Y150.39997054033432
G1 F1500 X79.15189126797779 Y150.39997054033432 E700.68868
G0 F4200 X78.7516688298262 Y149.99974810218274
G1 F1500 X63.611805537841036 Y150.00045520896393 E701.19223
G0 F4200 X64.01202797599262 Y149.60023277081234
G1 F1500 X78.3521534984558 Y149.60023277081234 E701.66919
G0 F4200 X77.95193106030422 Y149.20001033266075
G1 F1500 X64.41225041414421 Y149.20001033266075 E702.11952
G0 F4200 X64.8124728522958 Y148.79978789450917
G1 F1500 X77.55170862215263 Y148.79978789450917 E702.54323
G0 F4200 X77.15219329078224 Y148.40027256313877
G1 F1500 X65.2119881836662 Y148.40027256313877 E702.94036
G0 F4200 X65.61221062181778 Y148.00005012498718
G1 F1500 X76.75197085263065 Y148.00005012498718 E703.31087
G0 F4200 X76.35174841447908 Y147.59982768683562
G1 F1500 X66.01243305996937 Y147.59982768683562 E703.65476
G0 F4200 X66.41194839133978 Y147.2003123554652
G1 F1500 X75.95223308310867 Y147.2003123554652 E703.97207
G0 F4200 X75.55201064495708 Y146.80008991731364
G1 F1500 X66.81217082949135 Y146.8000899173136 E704.26276
G0 F4200 X67.21239326764294 Y146.39986747916203
G1 F1500 X75.15178820680549 Y146.39986747916203 E704.52682
G0 F4200 X74.7522728754351 Y146.00035214779163
G1 F1500 X67.61190859901333 Y146.00035214779163 E704.76431
G0 F4200 X68.01213103716492 Y145.60012970964004
G1 F1500 X74.35205043728351 Y145.60012970964004 E704.97518
G0 F4200 X73.95182799913192 Y145.19990727148846
G1 F1500 X68.41235347531651 Y145.19990727148846 E705.15942
G0 F4200 X68.81186880668692 Y144.80039194011806
G1 F1500 X73.55231266776153 Y144.80039194011806 E705.31709
G0 F4200 X73.15209022960994 Y144.40016950196647
G1 F1500 X69.2120912448385 Y144.40016950196647 E705.44813
G0 F4200 X69.61231368299008 Y143.9999470638149
G1 F1500 X72.75186779145835 Y143.9999470638149 E705.55256
G0 F4200 X72.35164535330676 Y143.5997246256633
G1 F1500 X70.01182901436049 Y143.6004317324445 E705.63038
G0 F4200 X70.41205145251207 Y143.2002092942929
G1 F1500 X71.95213002193637 Y143.2002092942929 E705.6816
G0 F4200 X71.55190758378478 Y142.79998685614132
G1 F1500 X70.81227389066366 Y142.79998685614132 E705.7062
G0 F4200 X70.83419420088045 Y142.8219071663581
; MESH:NONMESH
G0 F600 X70.83419420088045 Y142.8219071663581 Z1
G0 F4200 X71.26340801706067 Y198.4294915456494
G0 X70.88652010268825 Y199.0128546401283
; TIME_ELAPSED:1061.369410
; LAYER:4
; TYPE:WALL-OUTER
; MESH:Print_test_with_casting v1.stl 1
G1 F895.5 X42.4735554210504 Y170.6013041720528 E707.04931
G1 F829.5 X42.09878882702153 Y170.17704010334086 E707.06974
G1 F825.7 X42.425472159929704 Y169.802273509312 E707.08776
G1 F895.5 X70.75782666851228 Y141.46850478716703 E708.42713
G1 F829.5 X71.18209073722421 Y141.09373819313817 E708.44755
G1 F825.7 X71.55685733125308 Y141.42042152604637 E708.46558
G1 F895.5 X99.96982201289094 Y169.83197199412183 E709.80869
G1 F829.5 X100.3460028204822 Y170.25623606283375 E709.82915
G1 X99.96982201289094 Y170.6805001315457 E709.84961
G1 F897.8 X71.63605329074599 Y199.0128546401283 E711.18564
G1 F825.7 X71.26128669671712 Y199.34095218659886 E711.2037
G1 X70.88652010268825 Y199.0128546401283 E711.22176
G0 F4200 X70.74509874645094 Y198.87143328389098
G0 X71.3772522088317 Y198.70597029709333
G1 F897.8 X99.68697930041633 Y170.3976574190711 E712.55666
G1 F829.5 X99.78031739553293 Y170.25623606283378 E712.56277
G1 X99.68697930041633 Y170.11481470659646 E712.56889
G1 F895.5 X71.29805624933881 Y141.72730586908133 E713.91086
G1 F825.7 X71.18209073722421 Y141.65800940452505 E713.91575
G1 F829.5 X71.04066938098691 Y141.75134749964167 E713.92187
G1 F895.5 X42.73235650296468 Y170.0610745912263 E715.2601
G1 F825.7 X42.66306003840839 Y170.1770401033409 E715.26499
G1 F829.5 X42.756398133525 Y170.3184614595782 E715.27111
G1 F895.5 X71.14532118460252 Y198.70597029709333 E716.61308
G1 F825.7 X71.26128669671711 Y198.77526676164962 E716.61798
G1 X71.3772522088317 Y198.70597029709333 E716.62287
G0 F4200 X71.51867356506902 Y198.564548940856
; MESH:NONMESH
G0 F600 X71.51867356506902 Y198.564548940856 Z1.2
G0 F4200 X70.88652010268825 Y199.0128546401283
; TIME_ELAPSED:1083.405912
; LAYER:5
; TYPE:WALL-OUTER
; MESH:Print_test_with_casting v1.stl 1
G1 F895.5 X42.4735554210504 Y170.6013041720528 E717.96598
G1 F829.5 X42.09878882702153 Y170.17704010334086 E717.98641
G1 F825.7 X42.425472159929704 Y169.802273509312 E718.00443
G1 F895.5 X70.75782666851228 Y141.46850478716703 E719.3438
G1 F829.5 X71.18209073722421 Y141.09373819313817 E719.36423
G1 F825.7 X71.55685733125308 Y141.42042152604637 E719.38225
G1 F895.5 X99.96982201289094 Y169.83197199412183 E720.72536
G1 F829.5 X100.3460028204822 Y170.25623606283375 E720.74582
G1 X99.96982201289094 Y170.6805001315457 E720.76628
G1 F897.8 X71.63605329074599 Y199.0128546401283 E722.10232
G1 F825.7 X71.26128669671712 Y199.34095218659886 E722.12037
G1 X70.88652010268825 Y199.0128546401283 E722.13843
G0 F4200 X70.74509874645094 Y198.87143328389098
G0 X71.3772522088317 Y198.70597029709333
G1 F897.8 X99.68697930041633 Y170.3976574190711 E723.47333
G1 F829.5 X99.78031739553293 Y170.25623606283378 E723.47944
G1 X99.68697930041633 Y170.11481470659646 E723.48556
G1 F895.5 X71.29805624933881 Y141.72730586908133 E724.82753
G1 F825.7 X71.18209073722421 Y141.65800940452505 E724.83243
G1 F829.5 X71.04066938098691 Y141.75134749964167 E724.83854
G1 F895.5 X42.73235650296468 Y170.0610745912263 E726.17677
G1 F825.7 X42.66306003840839 Y170.1770401033409 E726.18167
G1 F829.5 X42.756398133525 Y170.3184614595782 E726.18778
G1 F895.5 X71.14532118460252 Y198.70597029709333 E727.52975
G1 F825.7 X71.26128669671711 Y198.77526676164962 E727.53465
G1 X71.3772522088317 Y198.70597029709333 E727.53955
G0 F4200 X71.51867356506902 Y198.564548940856
; MESH:NONMESH
G0 F600 X71.51867356506902 Y198.564548940856 Z1.4
G0 F4200 X70.88652010268825 Y199.0128546401283
; TIME_ELAPSED:1105.442414
; LAYER:6
; TYPE:WALL-OUTER
; MESH:Print_test_with_casting v1.stl 1
G1 F895.5 X42.4735554210504 Y170.6013041720528 E728.88266
G1 F829.5 X42.09878882702153 Y170.17704010334086 E728.90308
G1 F825.7 X42.425472159929704 Y169.802273509312 E728.92111
G1 F895.5 X70.75782666851228 Y141.46850478716703 E730.26047
G1 F829.5 X71.18209073722421 Y141.09373819313817 E730.2809
G1 F825.7 X71.55685733125308 Y141.42042152604637 E730.29892
G1 F895.5 X99.96982201289094 Y169.83197199412183 E731.64203
G1 F829.5 X100.3460028204822 Y170.25623606283375 E731.66249
G1 X99.96982201289094 Y170.6805001315457 E731.68296
G1 F897.8 X71.63605329074599 Y199.0128546401283 E733.01899
G1 F825.7 X71.26128669671712 Y199.34095218659886 E733.03705
G1 X70.88652010268825 Y199.0128546401283 E733.0551
G0 F4200 X70.74509874645094 Y198.87143328389098
G0 X71.3772522088317 Y198.70597029709333
G1 F897.8 X99.68697930041633 Y170.3976574190711 E734.39
G1 F829.5 X99.78031739553293 Y170.25623606283378 E734.39612
G1 X99.68697930041633 Y170.11481470659646 E734.40223
G1 F895.5 X71.29805624933881 Y141.72730586908133 E735.7442
G1 F825.7 X71.18209073722421 Y141.65800940452505 E735.7491
G1 F829.5 X71.04066938098691 Y141.75134749964167 E735.75522
G1 F895.5 X42.73235650296468 Y170.0610745912263 E737.09344
G1 F825.7 X42.66306003840839 Y170.1770401033409 E737.09834
G1 F829.5 X42.756398133525 Y170.3184614595782 E737.10446
G1 F895.5 X71.14532118460252 Y198.70597029709333 E738.44643
G1 F825.7 X71.26128669671711 Y198.77526676164962 E738.45132
G1 X71.3772522088317 Y198.70597029709333 E738.45622
G0 F4200 X71.51867356506902 Y198.564548940856
; MESH:NONMESH
G0 F600 X71.51867356506902 Y198.564548940856 Z1.6
G0 F4200 X70.88652010268825 Y199.0128546401283
; TIME_ELAPSED:1127.478916
; LAYER:7
; TYPE:WALL-OUTER
; MESH:Print_test_with_casting v1.stl 1
G1 F895.5 X42.4735554210504 Y170.6013041720528 E739.79933
G1 F829.5 X42.09878882702153 Y170.17704010334086 E739.81976
G1 F825.7 X42.425472159929704 Y169.802273509312 E739.83778
G1 F895.5 X70.75782666851228 Y141.46850478716703 E741.17715
G1 F829.5 X71.18209073722421 Y141.09373819313817 E741.19757
G1 F825.7 X71.55685733125308 Y141.42042152604637 E741.2156
G1 F895.5 X99.96982201289094 Y169.83197199412183 E742.55871
G1 F829.5 X100.3460028204822 Y170.25623606283375 E742.57917
G1 X99.96982201289094 Y170.6805001315457 E742.59963
G1 F897.8 X71.63605329074599 Y199.0128546401283 E743.93566
G1 F825.7 X71.26128669671712 Y199.34095218659886 E743.95372
G1 X70.88652010268825 Y199.0128546401283 E743.97178
G0 F4200 X70.74509874645094 Y198.87143328389098
G0 X71.3772522088317 Y198.70597029709333
G1 F897.8 X99.68697930041633 Y170.3976574190711 E745.30668
G1 F829.5 X99.78031739553293 Y170.25623606283378 E745.31279
G1 X99.68697930041633 Y170.11481470659646 E745.31891
G1 F895.5 X71.29805624933881 Y141.72730586908133 E746.66088
G1 F825.7 X71.18209073722421 Y141.65800940452505 E746.66577
G1 F829.5 X71.04066938098691 Y141.75134749964167 E746.67189
G1 F895.5 X42.73235650296468 Y170.0610745912263 E748.01012
G1 F825.7 X42.66306003840839 Y170.1770401033409 E748.01501
G1 F829.5 X42.756398133525 Y170.3184614595782 E748.02113
G1 F895.5 X71.14532118460252 Y198.70597029709333 E749.3631
G1 F825.7 X71.26128669671711 Y198.77526676164962 E749.368
G1 X71.3772522088317 Y198.70597029709333 E749.37289
G0 F4200 X71.51867356506902 Y198.564548940856
; MESH:NONMESH
G0 F600 X71.51867356506902 Y198.564548940856 Z1.8
G0 F4200 X70.88652010268825 Y199.0128546401283
; TIME_ELAPSED:1149.515418
; LAYER:8
; TYPE:WALL-OUTER
; MESH:Print_test_with_casting v1.stl 1
G1 F895.5 X42.4735554210504 Y170.6013041720528 E750.716
G1 F829.5 X42.09878882702153 Y170.17704010334086 E750.73643
G1 F825.7 X42.425472159929704 Y169.802273509312 E750.75445
G1 F895.5 X70.75782666851228 Y141.46850478716703 E752.09382
G1 F829.5 X71.18209073722421 Y141.09373819313817 E752.11425
G1 F825.7 X71.55685733125308 Y141.42042152604637 E752.13227
G1 F895.5 X99.96982201289094 Y169.83197199412183 E753.47538
G1 F829.5 X100.3460028204822 Y170.25623606283375 E753.49584
G1 X99.96982201289094 Y170.6805001315457 E753.5163
G1 F897.8 X71.63605329074599 Y199.0128546401283 E754.85234
G1 F825.7 X71.26128669671712 Y199.34095218659886 E754.87039
